(File created: Wednesday November 19 2025 - 08:51 AM)
(for Carvera from Vectric)
(VECTRIC POST REVISION)
(AA6001CAC4E9696A3EC4F9B49CBCFB6D)
G90G54
G17
G21

T1M6
G0Z20.320
G0X0.000Y0.000
S10000M3
G0X63.460Y0.054
G0Z5.080
G1Z-1.000F300.0
G1X0.040F1000.0
X0.004Y0.057
X0.000Y0.111
Y2.277
X63.500
Y4.499
X0.000
Y6.722
X63.500
Y8.944
X0.000
Y11.167
X63.500
Y13.389
X0.000
Y15.612
X63.500
Y17.834
X0.000
Y20.057
X63.500
Y22.279
X0.000
Y24.502
X63.500
Y26.724
X0.000
Y28.947
X63.500
Y31.169
X0.000
Y33.392
X63.500
Y35.614
X0.000
Y37.837
X63.500
Y40.059
X0.000
Y42.282
X63.500
Y44.504
X0.000
Y46.727
X63.500
Y48.949
X0.000
Y51.172
X63.500
Y53.394
X0.000
Y55.617
X63.500
Y57.839
X0.000
Y60.062
X12.357
X12.295Y60.119
X12.242Y60.173
X12.189Y60.226
X12.136Y60.279
X11.985Y60.444
X11.860Y60.628
X11.680Y60.931
X11.596Y61.110
X11.534Y61.300
X11.497Y61.496
X11.484Y61.693
Y62.284
X0.000
Y64.507
G0Z5.080
G0X18.619Y60.062
G1Z-1.000F300.0
G1X63.500F1000.0
Y62.284
X18.853
G0Z5.080
G0X0.000Y64.507
G1Z-1.000F300.0
G1X63.500F1000.0
Y66.729
X17.280
X17.395Y66.784
X17.573Y66.879
X17.739Y66.997
X17.887Y67.134
X17.940Y67.187
X17.994Y67.240
X18.047Y67.293
X18.184Y67.442
X18.301Y67.607
X18.397Y67.786
X18.471Y67.940
X18.528Y68.103
X18.567Y68.270
X18.625Y68.512
X18.645Y68.761
Y68.814
X18.644Y68.877
X18.667Y68.952
X63.500
Y71.174
X18.163
X18.153Y71.185
X18.100Y71.238
X18.047Y71.291
X17.994Y71.344
X17.940Y71.397
X17.887Y71.450
X17.722Y71.601
X17.538Y71.726
X17.366Y71.840
X17.181Y71.930
X17.166Y71.939
X17.006Y72.045
X16.839Y72.156
X16.659Y72.245
X16.469Y72.310
X16.281Y72.371
X16.086Y72.408
X15.888Y72.421
X15.569
X15.372Y72.408
X15.177Y72.371
X14.988Y72.310
X14.814Y72.251
X14.647Y72.172
X14.469Y72.077
X14.304Y71.960
X14.155Y71.822
X14.102Y71.769
X14.049Y71.716
X13.912Y71.568
X13.794Y71.402
X13.699Y71.224
X13.674Y71.174
G0Z5.080
G0X0.000Y66.729
G1Z-1.000F300.0
G1X14.973F1000.0
X14.808Y66.814
X14.631Y66.936
X14.474Y67.080
X14.421Y67.134
X14.368Y67.187
X14.314Y67.240
X14.177Y67.388
X14.060Y67.554
X13.965Y67.732
X13.886Y67.899
X13.826Y68.073
X13.766Y68.262
X13.729Y68.457
X13.716Y68.654
Y68.891
X13.683Y68.952
X0.000
Y71.174
X13.674
G0Z5.080
G0X0.000Y73.397
G1Z-1.000F300.0
G1X63.500F1000.0
Y75.619
X0.000
Y77.842
X63.500
Y80.064
X0.000
Y82.287
X63.500
Y84.509
X0.000
Y86.732
X63.500
Y88.842
X63.496Y88.896
X63.460Y88.899
X0.040
G0Z5.080
G0X0.000Y0.111
G1Z-1.000F300.0
G1X0.004Y0.057F1000.0
X0.058Y0.053
X63.442
X63.496Y0.057
X63.500Y0.111
Y88.842
X63.496Y88.896
X63.442Y88.900
X0.058
X0.004Y88.896
X0.000Y88.842
Y0.111
G0Z5.080
G0X11.484Y61.693
G1Z-1.000F300.0
G1Y62.331F1000.0
G2X11.680Y63.094I1.588J0.000
G2X12.029Y63.586I1.445J-0.656
G1X12.083Y63.639
X12.136Y63.692
G2X12.628Y64.042I1.149J-1.096
G1X12.734Y64.095
X12.841Y64.148
G2X13.603Y64.344I0.763J-1.392
G1X14.347
G2X14.918Y64.237I0.000J-1.587
G1X15.197
G2X15.960Y64.042I0.000J-1.587
G1X16.262Y63.862
X16.519Y63.676
X16.825Y63.427
X16.878Y63.373
X16.918Y63.334
X17.270
G2X18.419Y62.842I0.000J-1.587
G1X18.472Y62.789
X18.525Y62.736
G2X18.875Y62.243I-1.096J-1.149
G2X19.070Y61.481I-1.392J-0.763
G1Y61.215
G2X18.875Y60.452I-1.588J0.000
G2X18.525Y59.960I-1.445J0.656
G1X18.472Y59.907
G2X17.979Y59.557I-1.149J1.096
G2X17.217Y59.362I-0.763J1.392
G1X16.874
X16.837Y59.338
G2X16.438Y59.079I-1.055J1.186
G1X16.097Y58.941
G2X15.516Y58.830I-0.581J1.477
G1X15.251
G2X14.670Y58.941I0.000J1.587
G1X14.329Y59.079
X14.222Y59.132
X14.014Y59.246
X13.979Y59.259
X13.819Y59.313
X13.751Y59.333
X13.538Y59.386
G2X12.857Y59.684I0.278J1.563
G1X12.601Y59.870
X12.295Y60.119
X12.242Y60.173
X12.189Y60.226
X12.136Y60.279
X11.860Y60.628
X11.680Y60.931
G2X11.484Y61.693I1.392J0.763
G0Z5.080
G0X13.397Y69.877
G1Z-1.000F300.0
G1Y70.249F1000.0
G2X13.593Y71.011I1.588J0.000
G1X13.646Y71.117
X13.699Y71.224
G2X14.049Y71.716I1.445J-0.656
G1X14.102Y71.769
X14.155Y71.822
G2X14.647Y72.172I1.149J-1.096
G1X14.988Y72.310
G2X15.569Y72.421I0.581J-1.477
G1X15.888
G2X16.469Y72.310I0.000J-1.587
G2X17.006Y72.045I-0.422J-1.530
G1X17.166Y71.939
X17.181Y71.930
X17.538Y71.726
X17.887Y71.450
X17.940Y71.397
X17.994Y71.344
X18.047Y71.291
X18.100Y71.238
X18.153Y71.185
X18.206Y71.132
G2X18.556Y70.639I-1.096J-1.149
G2X18.751Y69.877I-1.392J-0.763
G1Y69.451
G2X18.644Y68.877I-1.588J0.000
G1X18.645Y68.814
Y68.761
G2X18.567Y68.270I-1.588J0.000
G2X18.397Y67.786I-1.563J0.278
G2X18.047Y67.293I-1.445J0.656
G1X17.994Y67.240
X17.940Y67.187
X17.887Y67.134
G2X17.395Y66.784I-1.149J1.096
G1X17.054Y66.646
X16.751Y66.560
G2X16.260Y66.482I-0.490J1.510
G1X15.941
G2X15.360Y66.593I0.000J1.587
G1X15.201Y66.646
G2X14.474Y67.080I0.422J1.530
G1X14.421Y67.134
X14.368Y67.187
X14.314Y67.240
G2X13.965Y67.732I1.096J1.149
G1X13.826Y68.073
G2X13.716Y68.654I1.477J0.581
G1Y68.891
X13.593Y69.114
G2X13.397Y69.877I1.392J0.763
G0Z5.080
G0X63.460Y0.054
G1Z-2.000F300.0
G1X0.040F1000.0
X0.004Y0.057
X0.000Y0.111
Y2.277
X63.500
Y4.499
X0.000
Y6.722
X63.500
Y8.944
X0.000
Y11.167
X63.500
Y13.389
X0.000
Y15.612
X63.500
Y17.834
X0.000
Y20.057
X63.500
Y22.279
X32.784
X32.828Y22.372
X32.889Y22.562
X32.927Y22.758
X32.939Y22.956
Y23.115
X32.927Y23.313
X32.889Y23.509
X32.828Y23.698
X32.744Y23.878
X32.649Y24.056
X32.531Y24.222
X32.394Y24.370
X32.341Y24.423
X32.288Y24.476
X32.262Y24.502
X63.500
Y26.724
X38.678
X38.678Y26.728
Y27.100
X38.666Y27.298
X38.628Y27.494
X38.567Y27.684
X38.483Y27.863
X38.388Y28.041
X38.270Y28.207
X38.133Y28.355
X38.080Y28.409
X38.027Y28.462
X37.878Y28.599
X37.713Y28.716
X37.534Y28.812
X37.428Y28.865
X37.322Y28.918
X37.263Y28.947
X63.500
Y31.169
G0Z5.080
G0X33.749Y26.724
G1Z-2.000F300.0
G1X29.077F1000.0
G0Z5.080
G0X27.772Y22.279
G1Z-2.000F300.0
G1X0.000F1000.0
Y24.502
X26.284
X26.226Y24.616
X26.154Y24.820
X26.111Y25.030
X26.097Y25.241
Y25.506
X26.111Y25.716
X26.154Y25.927
X26.226Y26.131
X26.324Y26.324
X26.447Y26.500
X26.589Y26.655
X26.665Y26.724
X0.000
Y28.947
X35.114
G0Z5.080
G0X63.500Y31.169
G1Z-2.000F300.0
G1X0.000F1000.0
Y33.392
X9.570
X9.449Y33.482
X9.319Y33.604
X9.266Y33.657
X9.129Y33.805
X9.012Y33.971
X8.916Y34.149
X8.863Y34.255
X8.779Y34.435
X8.718Y34.624
X8.680Y34.820
X8.668Y35.018
Y35.496
X8.676Y35.614
X0.000
Y37.837
G0Z5.080
G0X14.127Y33.392
G1Z-2.000F300.0
G1X63.500F1000.0
Y35.614
X14.994
G0Z5.080
G0X0.000Y37.837
G1Z-2.000F300.0
G1X63.500F1000.0
Y40.059
X17.365
X17.387Y40.101
X17.440Y40.207
X17.524Y40.385
X17.693Y40.478
X17.851Y40.592
X17.994Y40.724
X18.047Y40.777
X18.197Y40.942
X18.323Y41.127
X18.428Y41.284
X18.514Y41.453
X18.578Y41.631
X18.685Y41.897
X18.780Y42.126
X18.817Y42.282
X63.500
Y44.504
X18.211
X18.206Y44.509
X18.153Y44.563
X18.004Y44.700
X17.839Y44.817
X17.661Y44.912
X17.621Y44.933
X17.578Y45.058
X17.519Y45.232
X17.440Y45.399
X17.387Y45.505
X17.292Y45.683
X17.174Y45.849
X17.037Y45.997
X16.984Y46.050
X16.835Y46.188
X16.670Y46.305
X16.491Y46.400
X16.385Y46.453
X16.279Y46.507
X16.112Y46.586
X15.938Y46.645
X15.750Y46.706
X15.637Y46.727
X63.500
Y48.949
G0Z5.080
G0X12.308Y40.059
G1Z-2.000F300.0
G1X0.000F1000.0
Y42.282
X11.963
X11.806Y42.394
X11.657Y42.531
X11.604Y42.584
X11.551Y42.637
X11.498Y42.690
X11.354Y42.847
X11.231Y43.024
X11.134Y43.216
X11.063Y43.417
X11.002Y43.606
X10.965Y43.801
X10.953Y43.998
Y44.264
X10.972Y44.504
X0.000
Y46.727
X13.069
G0Z5.080
G0X63.500Y48.949
G1Z-2.000F300.0
G1X0.000F1000.0
Y51.172
X63.500
Y53.394
X0.000
Y55.617
X25.865
X25.750Y55.639
X25.561Y55.700
X25.381Y55.784
X25.079Y55.964
X24.894Y56.090
X24.729Y56.240
X24.676Y56.293
X24.526Y56.459
X24.400Y56.643
X24.397Y56.647
X24.229Y56.740
X24.073Y56.854
X23.932Y56.984
X23.879Y57.037
X23.826Y57.091
X23.773Y57.144
X23.636Y57.292
X23.518Y57.458
X23.423Y57.636
X23.339Y57.815
X23.331Y57.839
X0.000
Y60.062
X11.874
X11.870Y60.066
X11.817Y60.119
X11.667Y60.284
X11.541Y60.469
X11.361Y60.771
X11.308Y60.878
X11.255Y60.984
X11.170Y61.163
X11.109Y61.353
X11.072Y61.549
X11.059Y61.746
Y62.278
X11.060Y62.284
X0.000
Y64.507
X12.730
X12.839Y64.546
X13.007Y64.585
X13.220Y64.638
X13.439Y64.661
X13.662Y64.750
X13.896Y64.804
X14.135Y64.822
X14.507
X14.520Y64.822
X14.552Y64.834
X14.580Y64.861
X14.673Y64.951
Y65.147
X14.692Y65.396
X14.750Y65.638
X14.836Y65.941
X14.867Y66.039
X14.616Y66.114
X14.442Y66.173
X14.275Y66.252
X14.097Y66.348
X13.932Y66.465
X13.783Y66.602
X13.730Y66.655
X13.677Y66.709
X13.656Y66.729
X0.000
Y68.952
X11.364
X11.268Y69.021
X11.126Y69.153
X11.073Y69.206
X11.020Y69.259
X10.967Y69.312
X10.914Y69.365
X10.776Y69.514
X10.659Y69.680
X10.564Y69.858
X10.480Y70.037
X10.418Y70.227
X10.381Y70.423
X10.369Y70.620
Y71.099
X10.373Y71.174
X0.000
Y73.397
X14.096
X14.166Y73.528
X14.284Y73.693
X14.421Y73.842
X14.474Y73.895
X14.527Y73.948
X14.676Y74.085
X14.841Y74.203
X15.019Y74.298
X15.126Y74.351
X15.305Y74.435
X15.495Y74.497
X15.691Y74.534
X15.888Y74.546
X16.313
X16.511Y74.534
X16.706Y74.497
X16.894Y74.436
X17.122Y74.354
X17.336Y74.238
X17.528Y74.091
X17.689Y73.976
X17.834Y73.842
X17.971Y73.693
X18.089Y73.528
X18.159Y73.397
G0Z5.080
G0X21.498Y60.062
G1Z-2.000F300.0
G1X19.130F1000.0
X19.205Y60.168
X19.300Y60.346
X19.379Y60.513
X19.438Y60.687
X19.499Y60.875
X19.536Y61.071
X19.548Y61.268
Y61.640
X19.536Y61.838
X19.499Y62.033
X19.438Y62.221
X19.416Y62.284
X20.575
X20.583Y62.422
X20.620Y62.617
X20.681Y62.806
X20.734Y62.965
X20.794Y63.140
X20.873Y63.306
X20.926Y63.412
X20.979Y63.519
X21.074Y63.697
X21.191Y63.863
X21.329Y64.011
X21.382Y64.064
X21.435Y64.117
X21.488Y64.171
X21.637Y64.308
X21.802Y64.425
X21.955Y64.507
X18.980
G0Z5.080
G0X27.008Y55.617
G1Z-2.000F300.0
G1X63.500F1000.0
Y57.839
X28.954
Y58.027
X28.941Y58.224
X28.904Y58.420
X28.843Y58.610
X28.758Y58.789
X28.663Y58.968
X28.546Y59.133
X28.409Y59.282
X28.355Y59.335
X28.302Y59.388
X28.249Y59.441
X28.196Y59.494
X28.143Y59.548
X28.090Y59.601
X28.037Y59.654
X27.888Y59.791
X27.723Y59.908
X27.544Y60.004
X27.438Y60.057
X27.428Y60.062
X63.500
Y62.284
X25.393
Y62.437
X25.381Y62.635
X25.344Y62.830
X25.283Y63.018
X25.224Y63.193
X25.145Y63.359
X24.965Y63.662
X24.839Y63.846
X24.689Y64.011
X24.636Y64.064
X24.583Y64.117
X24.530Y64.171
X24.476Y64.224
X24.328Y64.361
X24.162Y64.478
X24.109Y64.507
X63.500
G0Z5.080
G0X18.980
G1Z-2.000F300.0
G1X18.992Y64.551F1000.0
X19.060Y64.864
X19.107Y65.083
X19.123Y65.307
Y65.679
X19.111Y65.876
X19.074Y66.071
X19.013Y66.260
X18.948Y66.449
X18.858Y66.630
X18.792Y66.729
X63.500
Y68.952
X20.291
X20.326Y69.097
X20.345Y69.345
Y69.611
X20.333Y69.808
X20.296Y70.004
X20.235Y70.192
X20.176Y70.366
X20.097Y70.533
X20.002Y70.711
X19.884Y70.877
X19.747Y71.025
X19.694Y71.078
X19.641Y71.132
X19.598Y71.174
X63.500
Y73.397
X18.159
G0Z5.080
G0X63.500Y75.619
G1Z-2.000F300.0
G1X0.000F1000.0
Y77.842
X63.500
Y80.064
X0.000
Y82.287
X20.614
X20.521Y82.353
X20.372Y82.491
X20.319Y82.544
X20.184Y82.690
X20.067Y82.854
X19.971Y83.033
X19.899Y83.221
X19.852Y83.415
X19.794Y83.657
X19.774Y83.905
Y83.958
X19.786Y84.156
X19.823Y84.351
X19.875Y84.509
G0Z5.080
G0X22.875Y82.287
G1Z-2.000F300.0
G1X63.500F1000.0
Y84.509
X23.575
X23.512Y84.689
X23.413Y84.882
X23.290Y85.058
X23.148Y85.213
X23.095Y85.266
X23.042Y85.319
X22.884Y85.464
X22.708Y85.586
X22.516Y85.684
X22.314Y85.754
X22.126Y85.815
X21.931Y85.852
X21.733Y85.864
X21.680
X21.483Y85.852
X21.288Y85.815
X21.099Y85.754
X20.898Y85.684
X20.706Y85.586
X20.529Y85.464
X20.372Y85.319
X20.319Y85.266
X20.175Y85.109
X20.052Y84.932
X19.954Y84.741
X19.884Y84.539
X19.875Y84.509
X0.000
Y86.732
G0Z5.080
G0X19.875Y84.509
G1Z-2.000F300.0
G1X0.000F1000.0
Y86.732
X14.857
X14.868Y86.703
X14.976Y86.504
X15.108Y86.325
X15.199Y86.169
X15.307Y86.023
X15.430Y85.891
X15.483Y85.838
X15.632Y85.701
X15.798Y85.584
X15.976Y85.488
X16.155Y85.404
X16.345Y85.343
X16.541Y85.306
X16.738Y85.293
X17.164
X17.361Y85.306
X17.557Y85.343
X17.747Y85.404
X17.926Y85.488
X18.105Y85.584
X18.270Y85.701
X18.419Y85.838
X18.556Y85.987
X18.673Y86.152
X18.768Y86.331
X18.853Y86.510
X18.914Y86.700
X18.920Y86.732
X63.500
Y88.842
X63.496Y88.896
X63.460Y88.899
X18.217
G0Z5.080
G0X0.000Y86.732
G1Z-2.000F300.0
G1X14.857F1000.0
X14.789Y86.916
X14.741Y87.137
X14.726Y87.359
Y87.518
X14.740Y87.729
X14.783Y87.939
X14.854Y88.143
X14.953Y88.336
X15.075Y88.512
X15.218Y88.667
X15.351Y88.792
X15.496Y88.899
X0.040
G0Z5.080
G0X0.000Y0.111
G1Z-2.000F300.0
G1X0.004Y0.057F1000.0
X0.058Y0.053
X63.442
X63.496Y0.057
X63.500Y0.111
Y88.842
X63.496Y88.896
X63.442Y88.900
X18.215
X18.419Y88.720
G2X18.768Y88.228I-1.096J-1.149
G2X18.964Y87.465I-1.392J-0.763
G1Y87.093
G2X18.768Y86.331I-1.588J0.000
G2X18.419Y85.838I-1.445J0.656
G2X17.926Y85.488I-1.149J1.096
G2X17.164Y85.293I-0.763J1.392
G1X16.738
G2X15.976Y85.488I0.000J1.587
G2X15.483Y85.838I0.656J1.445
G1X15.430Y85.891
G2X15.108Y86.325I1.096J1.149
G2X14.726Y87.359I1.205J1.034
G1Y87.518
G2X15.218Y88.667I1.588J0.000
G1X15.497Y88.900
X0.058
X0.004Y88.896
X0.000Y88.842
Y0.111
G0Z5.080
G0X9.812Y37.261
G1Z-2.000F300.0
G1X9.918Y37.314F1000.0
G2X10.681Y37.509I0.763J-1.392
G1X11.053
G2X11.815Y37.314I0.000J-1.588
G2X12.279Y36.994I-0.656J-1.445
G1X12.385Y37.027
G2X12.966Y37.137I0.581J-1.477
G1X13.178
G2X13.941Y36.942I0.000J-1.588
G2X14.433Y36.592I-0.656J-1.445
G1X14.486Y36.539
G2X14.836Y36.046I-1.096J-1.149
G2X15.031Y35.284I-1.392J-0.763
G1Y34.965
G2X14.836Y34.202I-1.588J0.000
G2X14.486Y33.710I-1.445J0.656
G1X14.433Y33.657
X14.380Y33.604
G2X13.888Y33.254I-1.149J1.096
G1X13.843Y33.230
G2X13.477Y32.700I-1.462J0.619
G1X13.424Y32.647
X13.371Y32.594
G2X12.878Y32.244I-1.149J1.096
G2X12.393Y32.073I-0.763J1.392
G2X11.903Y31.996I-0.490J1.510
G1X11.744
G2X11.253Y32.073I0.000J1.588
G2X10.572Y32.371I0.278J1.563
G1X10.223Y32.647
X10.170Y32.700
X10.116Y32.753
G2X9.767Y33.246I1.096J1.149
G1X9.746Y33.286
G2X9.319Y33.604I0.723J1.413
G1X9.266Y33.657
G2X8.916Y34.149I1.096J1.149
G1X8.863Y34.255
G2X8.668Y35.018I1.392J0.763
G1Y35.496
G2X8.863Y36.259I1.588J0.000
G1X8.916Y36.365
G2X9.266Y36.858I1.445J-0.656
G1X9.319Y36.911
G2X9.812Y37.261I1.149J-1.096
G0Z5.080
G0X12.741Y46.624
G1Z-2.000F300.0
G1X12.975Y46.681F1000.0
X13.053Y46.719
X13.160Y46.772
G2X13.922Y46.967I0.763J-1.392
G1X14.188
G2X14.881Y46.808I0.000J-1.588
G1X14.932
X15.339Y46.755
X15.357
G2X15.938Y46.645I0.000J-1.588
G1X16.279Y46.507
X16.385Y46.453
X16.491Y46.400
G2X16.984Y46.050I-0.656J-1.445
G1X17.037Y45.997
G2X17.387Y45.505I-1.096J-1.149
G1X17.440Y45.399
X17.578Y45.058
X17.621Y44.933
X17.661Y44.912
G2X18.153Y44.563I-0.656J-1.445
G1X18.206Y44.509
X18.259Y44.456
G2X18.609Y43.964I-1.096J-1.149
G1X18.747Y43.623
G2X18.857Y43.042I-1.477J-0.581
G1Y42.617
G2X18.685Y41.897I-1.588J0.000
G1X18.578Y41.631
G2X18.323Y41.127I-1.521J0.454
G1X18.047Y40.777
X17.994Y40.724
G2X17.524Y40.385I-1.149J1.096
G1X17.440Y40.207
X17.387Y40.101
G2X17.037Y39.608I-1.445J0.656
G1X16.984Y39.555
X16.983Y39.554
G2X16.559Y38.864I-1.520J0.459
G1X16.506Y38.811
X16.453Y38.758
G2X15.960Y38.408I-1.149J1.096
G2X15.234Y38.213I-0.763J1.392
G1X14.826Y38.160
X14.772
X14.353Y38.216
G2X13.873Y38.323I0.100J1.584
G1X13.532Y38.461
X13.229Y38.641
G2X12.657Y39.214I0.799J1.372
G2X12.392Y39.751I1.265J0.959
G2X12.282Y40.332I1.477J0.581
G1Y40.757
G2X12.477Y41.519I1.588J0.000
G2X12.765Y41.950I1.445J-0.656
G1X12.650Y41.990
X12.491Y42.043
X12.150Y42.181
G2X11.657Y42.531I0.656J1.445
G1X11.604Y42.584
X11.551Y42.637
X11.498Y42.690
G2X11.063Y43.417I1.096J1.149
G2X10.953Y43.998I1.477J0.581
G1Y44.264
G2X11.031Y44.754I1.588J0.000
G1X11.116Y45.058
X11.255Y45.399
X11.435Y45.701
X11.711Y46.050
X12.060Y46.326
G2X12.741Y46.624I0.959J-1.265
G0Z5.080
G0X11.657Y63.639
G1Z-2.000F300.0
G1X11.680Y63.662F1000.0
X11.923Y63.958
X11.976Y64.011
X12.029Y64.064
G2X12.522Y64.414I1.149J-1.096
G2X13.007Y64.585I0.763J-1.392
G1X13.439Y64.661
G2X14.135Y64.822I0.696J-1.427
G1X14.507
X14.520Y64.822
X14.552Y64.834
X14.580Y64.861
X14.673Y64.951
Y65.147
G2X14.750Y65.638I1.588J0.000
G1X14.836Y65.941
X14.867Y66.039
X14.616Y66.114
X14.275Y66.252
G2X13.783Y66.602I0.656J1.445
G1X13.730Y66.655
X13.677Y66.709
X13.624Y66.762
X13.570Y66.815
X13.517Y66.868
G2X13.167Y67.360I1.096J1.149
G2X12.997Y67.845I1.392J0.763
G1X12.929Y68.159
G2X12.469Y68.325I0.302J1.558
G1X12.363Y68.378
X12.256Y68.431
X12.150Y68.484
X11.861Y68.655
X11.595Y68.814
G2X11.126Y69.153I0.680J1.434
G1X11.073Y69.206
X11.020Y69.259
X10.967Y69.312
X10.914Y69.365
G2X10.564Y69.858I1.096J1.149
G2X10.369Y70.620I1.392J0.763
G1Y71.099
G2X10.564Y71.861I1.588J0.000
G2X10.914Y72.354I1.445J-0.656
G1X10.967Y72.407
X11.020Y72.460
X11.073Y72.513
G2X11.800Y72.948I1.149J-1.096
G2X12.381Y73.058I0.581J-1.477
G1X12.594
X13.037Y72.995
G2X13.540Y72.852I-0.177J-1.578
G1X13.879Y72.898
X14.018Y73.243
X14.071Y73.349
G2X14.421Y73.842I1.445J-0.656
G1X14.474Y73.895
X14.527Y73.948
G2X15.019Y74.298I1.149J-1.096
G1X15.126Y74.351
G2X15.888Y74.546I0.763J-1.392
G1X16.313
G2X16.894Y74.436I0.000J-1.588
G2X17.528Y74.091I-0.422J-1.530
G1X17.834Y73.842
G2X18.184Y73.349I-1.096J-1.149
G1X18.237Y73.243
X18.375Y72.902
G2X18.485Y72.321I-1.477J-0.581
G1Y72.162
X18.460Y71.878
X18.734Y71.770
G2X19.428Y71.344I-0.454J-1.521
G1X19.481Y71.291
X19.535Y71.238
X19.588Y71.185
X19.641Y71.132
X19.694Y71.078
X19.747Y71.025
G2X20.097Y70.533I-1.096J-1.149
G1X20.235Y70.192
G2X20.345Y69.611I-1.477J-0.581
G1Y69.345
G2X20.268Y68.855I-1.588J0.000
G2X20.097Y68.370I-1.563J0.278
G2X19.747Y67.878I-1.445J0.656
G1X19.694Y67.824
X19.641Y67.771
X19.588Y67.718
G2X19.095Y67.368I-1.149J1.096
G1X18.781Y67.238
X18.605Y67.003
X18.748Y66.797
G2X19.013Y66.260I-1.265J-0.959
G2X19.123Y65.679I-1.477J-0.581
G1Y65.307
X19.060Y64.864
X18.992Y64.551
X18.907Y64.247
X18.768Y63.906
G2X18.461Y63.456I-1.445J0.656
G2X18.844Y63.161I-0.766J-1.391
G1X18.897Y63.108
X19.173Y62.758
G2X19.438Y62.221I-1.265J-0.959
G2X19.548Y61.640I-1.477J-0.581
G1Y61.268
G2X19.438Y60.687I-1.588J0.000
G1X19.300Y60.346
G2X18.950Y59.854I-1.445J0.656
G1X18.897Y59.801
X18.844Y59.747
X18.791Y59.694
X18.737Y59.641
X18.684Y59.588
X18.631Y59.535
G2X18.139Y59.185I-1.149J1.096
G1X18.032Y59.132
G2X17.270Y58.937I-0.763J1.392
G1X16.863
G2X16.438Y58.654I-1.081J1.162
G1X16.097Y58.516
G2X15.516Y58.405I-0.581J1.477
G1X15.357
G2X14.776Y58.516I0.000J1.588
G1X14.435Y58.654
X14.329Y58.707
X14.222Y58.760
G2X13.812Y59.030I0.656J1.445
G1X13.766Y59.047
X13.745Y59.053
X13.341Y59.153
X13.182Y59.206
X12.841Y59.344
X12.734Y59.398
G2X12.335Y59.657I0.656J1.445
G1X12.029Y59.907
X11.976Y59.960
X11.923Y60.013
X11.870Y60.066
X11.817Y60.119
X11.541Y60.469
X11.361Y60.771
X11.308Y60.878
X11.255Y60.984
G2X11.059Y61.746I1.392J0.763
G1Y62.278
G2X11.255Y63.040I1.588J0.000
G1X11.308Y63.147
G2X11.657Y63.639I1.445J-0.656
G0Z5.080
G0X23.457Y59.709
G1Z-2.000F300.0
G2X22.956Y59.628I-0.501J1.506F1000.0
G1X22.584
G2X21.435Y60.119I0.000J1.588
G1X21.382Y60.173
X21.329Y60.226
X21.079Y60.532
G2X20.819Y60.931I1.186J1.055
G1X20.681Y61.272
G2X20.571Y61.853I1.477J0.581
G1Y62.225
G2X20.681Y62.806I1.588J0.000
G1X20.734Y62.965
X20.873Y63.306
X20.926Y63.412
X20.979Y63.519
G2X21.329Y64.011I1.445J-0.656
G1X21.382Y64.064
X21.435Y64.117
X21.488Y64.171
G2X21.981Y64.520I1.149J-1.096
G1X22.087Y64.574
G2X22.849Y64.769I0.763J-1.392
G1X23.221
G2X23.984Y64.574I0.000J-1.587
G2X24.476Y64.224I-0.656J-1.445
G1X24.530Y64.171
X24.583Y64.117
X24.636Y64.064
X24.689Y64.011
X24.965Y63.662
X25.145Y63.359
X25.283Y63.018
G2X25.393Y62.437I-1.477J-0.581
G1Y62.118
G2X25.283Y61.537I-1.588J0.000
G2X25.018Y61.000I-1.530J0.422
G1X24.860Y60.776
X25.294Y60.836
X25.347
G2X25.837Y60.759I0.000J-1.588
G2X26.662Y60.338I-0.278J-1.563
G1X26.991Y60.248
X27.332Y60.110
X27.438Y60.057
X27.544Y60.004
G2X28.037Y59.654I-0.656J-1.445
G1X28.090Y59.601
X28.143Y59.548
X28.196Y59.494
X28.249Y59.441
X28.302Y59.388
X28.355Y59.335
X28.409Y59.282
G2X28.758Y58.789I-1.096J-1.149
G2X28.954Y58.027I-1.392J-0.763
G1Y57.655
G2X28.758Y56.892I-1.588J0.000
G2X28.409Y56.400I-1.445J0.656
G1X28.355Y56.347
X28.302Y56.293
X28.249Y56.240
X28.196Y56.187
G2X27.469Y55.752I-1.149J1.096
G1X27.309Y55.699
G2X26.728Y55.589I-0.581J1.477
G1X26.144
G2X25.381Y55.784I0.000J1.587
G1X25.079Y55.964
X24.729Y56.240
X24.676Y56.293
X24.400Y56.643
X24.397Y56.647
G2X23.932Y56.984I0.684J1.433
G1X23.879Y57.037
X23.826Y57.091
X23.773Y57.144
G2X23.423Y57.636I1.096J1.149
G2X23.228Y58.399I1.392J0.763
G1Y58.824
G2X23.338Y59.405I1.588J0.000
G1X23.457Y59.709
G0Z5.080
G0X23.148Y82.544
G1Z-2.000F300.0
G1X23.095Y82.491F1000.0
X23.042Y82.437
G2X21.893Y81.946I-1.149J1.096
G1X21.627
G2X20.865Y82.141I0.000J1.587
G2X20.372Y82.491I0.656J1.445
G1X20.319Y82.544
G2X19.852Y83.415I1.096J1.149
G2X19.774Y83.905I1.510J0.490
G1Y83.958
G2X19.884Y84.539I1.588J0.000
G2X20.319Y85.266I1.530J-0.422
G1X20.372Y85.319
G2X21.099Y85.754I1.149J-1.096
G2X21.680Y85.864I0.581J-1.477
G1X21.733
G2X22.314Y85.754I0.000J-1.588
G2X23.042Y85.319I-0.422J-1.530
G1X23.095Y85.266
X23.148Y85.213
G2X23.640Y84.064I-1.096J-1.149
G1Y83.692
G2X23.148Y82.544I-1.588J0.000
G0Z5.080
G0X36.768Y24.613
G1Z-2.000F300.0
G2X36.187Y24.503I-0.581J1.477F1000.0
G1X35.921
G2X35.340Y24.613I0.000J1.588
G1X34.999Y24.752
G2X34.507Y25.101I0.656J1.445
G1X34.454Y25.155
X34.401Y25.208
X34.347Y25.261
G2X33.998Y25.753I1.096J1.149
G1X33.859Y26.094
G2X33.749Y26.675I1.477J0.581
G1Y27.047
G2X33.859Y27.628I1.587J0.000
G2X34.294Y28.355I1.530J-0.422
G1X34.347Y28.409
X34.401Y28.462
X34.454Y28.515
G2X34.946Y28.865I1.149J-1.096
G1X35.052Y28.918
X35.393Y29.056
G2X35.974Y29.166I0.581J-1.477
G1X36.453
G2X37.215Y28.971I0.000J-1.588
G1X37.322Y28.918
X37.428Y28.865
X37.534Y28.812
G2X38.027Y28.462I-0.656J-1.445
G1X38.080Y28.409
X38.133Y28.355
G2X38.483Y27.863I-1.096J-1.149
G2X38.678Y27.100I-1.392J-0.763
G1Y26.728
G2X38.483Y25.966I-1.588J0.000
G2X38.133Y25.473I-1.445J0.656
G1X38.080Y25.420
X38.027Y25.367
X37.973Y25.314
G2X37.505Y24.975I-1.149J1.096
G1X37.215Y24.805
X37.109Y24.752
X36.768Y24.613
G0Z5.080
G0X27.430Y22.906
G1Z-2.000F300.0
G2X27.320Y23.487I1.477J0.581F1000.0
G1Y23.618
G2X26.642Y24.039I0.472J1.516
G1X26.589Y24.092
G2X26.097Y25.241I1.096J1.149
G1Y25.506
G2X26.589Y26.655I1.587J0.000
G2X27.738Y27.147I1.149J-1.096
G1X28.004
G2X29.153Y26.655I0.000J-1.588
G2X29.468Y26.233I-1.096J-1.149
G1X29.651Y26.244
X29.917
X30.360Y26.180
G2X30.945Y25.995I-0.177J-1.578
G1X31.247Y25.815
X31.597Y25.539
X31.650Y25.486
X31.926Y25.137
G2X32.200Y24.564I-1.265J-0.959
G1X32.235Y24.530
X32.288Y24.476
X32.341Y24.423
X32.394Y24.370
G2X32.744Y23.878I-1.096J-1.149
G2X32.939Y23.115I-1.392J-0.763
G1Y22.956
G2X32.744Y22.193I-1.588J0.000
G2X32.394Y21.701I-1.445J0.656
G1X32.341Y21.647
X32.288Y21.594
X32.235Y21.541
G2X31.255Y21.058I-1.149J1.096
G2X30.661Y20.943I-0.594J1.472
G1X30.289
G2X29.708Y21.053I0.000J1.588
G2X29.171Y21.318I0.422J1.530
G1X29.024Y21.415
X28.942Y21.457
X28.835Y21.510
X28.729Y21.563
X28.623Y21.616
X28.516Y21.670
G2X28.024Y22.019I0.656J1.445
G1X27.971Y22.073
X27.918Y22.126
X27.865Y22.179
G2X27.430Y22.906I1.096J1.149
G0Z5.080
G0X63.460Y0.054
G1Z-3.000F300.0
G1X0.040F1000.0
X0.004Y0.057
X0.000Y0.111
Y2.277
X63.500
Y4.499
X31.017
X31.026Y4.623
Y4.782
X31.009Y5.012
X30.956Y5.249
X30.863Y5.483
X30.730Y5.705
X30.561Y5.905
X30.361Y6.074
X30.139Y6.207
X29.905Y6.300
X29.669Y6.353
X29.438Y6.370
X29.226
X28.996Y6.353
X28.760Y6.300
X28.525Y6.207
X28.303Y6.074
X28.103Y5.905
X27.934Y5.705
X27.801Y5.483
X27.709Y5.249
X27.655Y5.012
X27.638Y4.782
Y4.623
X27.647Y4.499
X0.000
G0Z5.080
G0Y6.722
G1Z-3.000F300.0
G1X63.500F1000.0
Y8.944
X0.000
Y11.167
X63.500
Y13.389
X0.000
Y15.612
X63.500
Y17.834
X0.000
Y20.057
X63.500
Y22.279
X33.830
X33.830Y22.280
X33.842Y22.477
Y22.903
X33.830Y23.100
X33.793Y23.295
X33.732Y23.484
X33.673Y23.658
X33.594Y23.825
X33.541Y23.931
X33.458Y24.089
X33.357Y24.238
X33.307Y24.387
X33.268Y24.502
X33.990
X33.975Y24.517
X33.922Y24.570
X33.869Y24.623
X33.732Y24.772
X33.615Y24.937
X33.519Y25.116
X33.466Y25.222
X33.390Y25.383
X33.307Y25.541
X33.265Y25.623
X33.094Y25.913
X33.020Y26.068
X32.963Y26.230
X32.924Y26.397
X32.865Y26.640
X32.859Y26.724
X30.093
X30.056Y26.761
X30.003Y26.814
X29.862Y26.945
X29.707Y27.058
X29.684Y27.080
X29.423Y27.300
X29.428Y27.316
X29.489Y27.505
X29.526Y27.700
X29.538Y27.897
Y28.340
X29.578Y28.542
X29.591Y28.748
Y28.947
X33.998
X34.043Y28.971
X34.149Y29.024
X34.232Y29.066
X34.521Y29.237
X34.627Y29.290
X34.734Y29.343
X34.889Y29.417
X35.051Y29.474
X35.218Y29.514
X35.461Y29.572
X35.709Y29.591
X35.921
X36.127Y29.578
X36.329Y29.538
X36.400
X36.597Y29.526
X36.792Y29.489
X36.981Y29.428
X37.140Y29.375
X37.330Y29.310
X37.510Y29.220
X37.677Y29.110
X37.837Y29.003
X37.919Y28.947
G0Z5.080
G0X63.500Y24.502
G1Z-3.000F300.0
G1X37.591F1000.0
X37.642Y24.514
X37.804Y24.571
X37.959Y24.645
X38.138Y24.740
X38.303Y24.858
X38.452Y24.995
X38.505Y25.048
X38.558Y25.101
X38.611Y25.155
X38.748Y25.303
X38.866Y25.469
X38.961Y25.647
X39.040Y25.814
X39.099Y25.988
X39.160Y26.176
X39.197Y26.372
X39.209Y26.569
Y26.724
X63.500
Y28.947
X37.919
G0Z5.080
G0X63.500Y31.169
G1Z-3.000F300.0
G1X28.566F1000.0
G0Z5.080
G0X26.718Y22.279
G1Z-3.000F300.0
G1X0.000F1000.0
Y24.502
X25.404
X25.389Y24.531
X25.315Y24.686
X25.258Y24.849
X25.219Y25.016
X25.160Y25.258
X25.141Y25.506
Y25.825
X25.160Y26.073
X25.219Y26.315
X25.304Y26.619
X25.340Y26.724
X0.000
Y28.947
X24.991
X24.982Y29.067
Y29.492
X25.001Y29.740
X25.059Y29.982
X25.098Y30.149
X25.156Y30.312
X25.230Y30.467
X25.325Y30.645
X25.443Y30.811
X25.580Y30.959
X25.633Y31.012
X25.686Y31.066
X25.739Y31.119
X25.794Y31.169
X16.754
X16.789Y31.278
X16.826Y31.473
X16.838Y31.670
Y32.095
X16.826Y32.293
X16.789Y32.488
X16.728Y32.676
X16.669Y32.851
X16.590Y33.017
X16.537Y33.124
X16.442Y33.302
X16.378Y33.392
X63.500
Y35.614
X16.354
X16.360Y35.709
Y36.134
X16.348Y36.331
X16.310Y36.527
X16.249Y36.717
X16.165Y36.896
X16.112Y37.003
X16.003Y37.203
X16.154
X16.352Y37.216
X16.548Y37.253
X16.737Y37.314
X16.917Y37.398
X17.023Y37.452
X17.201Y37.547
X17.367Y37.664
X17.515Y37.801
X17.551Y37.837
X63.500
Y40.059
X19.181
X19.215Y40.228
X19.229Y40.438
Y40.810
X19.217Y41.008
X19.180Y41.203
X19.119Y41.391
X19.040Y41.614
X19.140Y41.801
X19.219Y41.967
X19.279Y42.142
X19.324Y42.282
X63.500
Y44.504
X18.839
X18.737Y44.616
X18.684Y44.669
X18.631Y44.722
X18.578Y44.775
X18.436Y44.907
X18.279Y45.021
X18.248Y45.126
X18.195Y45.339
X18.142Y45.551
X18.104Y45.717
X18.067Y45.922
X18.003Y46.120
X17.944Y46.295
X17.865Y46.461
X17.770Y46.640
X17.708Y46.727
X63.500
Y48.949
X14.560
X14.527Y48.972
X14.334Y49.071
X14.130Y49.143
X13.920Y49.185
X13.710Y49.199
X13.285
X13.087Y49.187
X12.891Y49.150
X12.701Y49.088
X12.522Y49.004
X12.419Y48.949
G0Z5.080
G0X11.827Y37.837
G1Z-3.000F300.0
G1X13.198F1000.0
G0Z5.080
G0X0.000Y31.169
G1Z-3.000F300.0
G1X10.106F1000.0
X10.063Y31.212
X10.010Y31.265
X9.957Y31.319
X9.904Y31.372
X9.767Y31.520
X9.649Y31.686
X9.554Y31.864
X9.501Y31.970
X9.448Y32.077
X9.395Y32.183
X9.293Y32.408
X9.228Y32.646
X9.097Y32.733
X9.015Y32.775
X8.909Y32.829
X8.802Y32.882
X8.694Y32.936
X8.470Y33.003
X8.255Y33.103
X8.058Y33.234
X7.885Y33.391
X7.884Y33.392
X0.000
Y35.614
X7.587
X7.618Y35.673
X7.718Y35.822
X7.835Y35.958
X7.924Y36.109
X8.030Y36.251
X8.150Y36.379
X8.204Y36.432
X8.369Y36.583
X8.553Y36.708
X8.789Y36.857
X8.879Y37.010
X8.985Y37.153
X9.107Y37.283
X9.160Y37.336
X9.213Y37.389
X9.266Y37.442
X9.415Y37.579
X9.580Y37.697
X9.759Y37.792
X9.854Y37.837
X0.000
Y40.059
X11.830
X11.797Y40.162
X11.760Y40.367
X11.713Y40.586
X11.697Y40.810
Y41.076
X11.709Y41.273
X11.746Y41.468
X11.807Y41.657
X11.865Y41.827
X11.684Y41.887
X11.512Y41.968
X11.449Y41.999
X11.324Y42.042
X11.095Y42.073
X10.871Y42.138
X10.659Y42.235
X10.588Y42.282
X0.000
Y44.504
X5.972
X5.910Y44.637
X5.848Y44.827
X5.811Y45.023
X5.799Y45.221
Y45.539
X5.811Y45.737
X5.848Y45.933
X5.910Y46.123
X5.994Y46.302
X6.089Y46.480
X6.207Y46.646
X6.281Y46.727
X0.000
Y48.949
X12.419
G0Z5.080
G0X0.000Y51.172
G1Z-3.000F300.0
G1X63.500F1000.0
Y53.394
X0.000
Y55.617
X22.763
X22.761Y55.618
X22.604Y55.762
X22.551Y55.815
X22.498Y55.868
X22.361Y56.017
X22.243Y56.182
X22.148Y56.361
X22.095Y56.467
X22.020Y56.622
X21.963Y56.785
X21.924Y56.952
X21.866Y57.194
X21.846Y57.442
Y57.495
X21.875Y57.793
X21.713Y57.839
X0.000
Y60.062
X11.439
X11.414Y60.096
X11.281Y60.248
X11.169Y60.416
X10.989Y60.718
X10.936Y60.824
X10.857Y60.991
X10.798Y61.165
X10.712Y61.469
X10.654Y61.711
X10.634Y61.959
Y62.225
X10.638Y62.284
X0.000
Y64.507
X10.794
Y64.775
X10.806Y64.973
X10.843Y65.169
X10.905Y65.359
X10.989Y65.538
X11.042Y65.644
X11.137Y65.823
X11.255Y65.988
X11.392Y66.137
X11.445Y66.190
X11.594Y66.327
X11.759Y66.444
X11.937Y66.540
X12.104Y66.619
X12.278Y66.678
X12.438Y66.729
X0.000
Y68.952
X10.689
X10.648Y68.993
X10.595Y69.047
X10.542Y69.100
X10.488Y69.153
X10.338Y69.318
X10.212Y69.502
X10.102Y69.670
X10.013Y69.850
X9.947Y70.039
X9.884Y70.238
X9.847Y70.443
X9.800Y70.662
X9.784Y70.886
Y71.099
X9.790Y71.174
X0.000
Y73.397
X11.701
X11.812Y73.418
X12.009Y73.430
X12.434
X12.683Y73.411
X12.740Y73.397
X13.805
G0Z5.080
G0X13.932Y75.619
G1Z-3.000F300.0
G1X0.000F1000.0
Y77.842
X13.478
X13.544Y77.963
X13.684Y78.149
X13.848Y78.311
X14.030Y78.445
X14.222Y78.549
X14.402Y78.633
X14.591Y78.694
X14.787Y78.732
X14.985Y78.744
X15.038
X15.248Y78.730
X15.459Y78.687
X15.663Y78.616
X15.856Y78.517
X16.032Y78.395
X16.187Y78.252
X16.339Y78.085
X16.466Y77.898
X16.627Y78.016
X16.802Y78.113
X16.949Y78.209
X17.251Y78.389
X17.357Y78.443
X17.512Y78.517
X17.675Y78.574
X17.842Y78.613
X18.081Y78.671
X18.140Y78.730
X18.193Y78.784
X18.247Y78.837
X18.395Y78.974
X18.561Y79.091
X18.739Y79.186
X18.845Y79.240
X19.012Y79.319
X19.186Y79.378
X19.454Y79.457
X19.555Y79.540
X19.324Y79.643
X19.145Y79.738
X18.980Y79.856
X18.831Y79.993
X18.778Y80.046
X18.761Y80.064
X0.000
Y82.287
X18.463
X18.513Y82.385
X18.636Y82.561
X18.778Y82.716
X18.831Y82.769
X18.884Y82.822
X19.043Y82.967
X19.119Y83.127
X19.197Y83.276
X19.189Y83.427
Y84.064
X19.202Y84.262
X19.239Y84.457
X19.256Y84.509
X0.000
Y86.732
X14.055
X14.039Y86.778
X14.023Y86.819
X13.897Y86.962
X13.788Y87.119
X13.699Y87.287
X13.620Y87.454
X13.561Y87.628
X13.500Y87.816
X13.463Y88.012
X13.451Y88.209
Y88.581
X13.483Y88.899
X0.040
G0Z5.080
G0X19.592Y86.732
G1Z-3.000F300.0
G1X20.512F1000.0
X20.636Y86.845
X20.812Y86.968
X21.004Y87.066
X21.206Y87.136
X21.394Y87.197
X21.589Y87.234
X21.787Y87.246
X22.212
X22.409Y87.234
X22.604Y87.197
X22.793Y87.136
X23.020Y87.054
X23.234Y86.938
X23.427Y86.791
X23.463Y86.768
X23.593
X23.840Y86.749
X23.910Y86.732
X24.129
G0Z5.080
G0X20.556Y64.507
G1Z-3.000F300.0
G1X19.654F1000.0
Y64.722
X19.635Y64.970
X19.577Y65.213
X19.548Y65.342
Y65.785
X19.534Y65.997
X19.548Y66.210
Y66.423
X19.536Y66.621
X19.515Y66.729
X20.208
X20.211Y66.780
X20.249Y66.976
X20.310Y67.165
X20.394Y67.345
X20.489Y67.523
X20.607Y67.688
X20.744Y67.837
X20.797Y67.890
X20.850Y67.943
X21.035Y68.109
X21.243Y68.244
X21.470Y68.344
X21.298Y68.636
X21.219Y68.802
X21.168Y68.952
X20.676
X20.698Y69.044
X20.717Y69.292
Y69.664
X20.705Y69.862
X20.668Y70.057
X20.607Y70.245
X20.537Y70.446
X20.439Y70.638
X20.316Y70.815
X20.172Y70.972
X20.119Y71.025
X20.066Y71.078
X20.013Y71.132
X19.970Y71.174
X21.249
G0Z5.080
G0X28.157Y55.617
G1Z-3.000F300.0
G1X63.500F1000.0
Y57.839
X29.379
Y57.974
X29.366Y58.171
X29.329Y58.366
X29.269Y58.555
X29.203Y58.744
X29.114Y58.925
X29.003Y59.092
X28.878Y59.276
X28.727Y59.441
X28.587Y59.572
X28.432Y59.684
X28.409Y59.707
X28.244Y59.857
X28.059Y59.983
X27.926Y60.062
X63.500
Y62.284
X25.712
Y62.544
X25.685Y62.836
X25.712Y63.128
Y63.606
X25.700Y63.804
X25.663Y64.000
X25.601Y64.190
X25.517Y64.369
X25.443Y64.507
X28.892
X28.865Y64.564
X28.804Y64.754
X28.767Y64.950
X28.754Y65.147
Y65.519
X28.771Y65.746
X28.758Y65.788
X28.705Y65.948
X28.644Y66.136
X28.607Y66.331
X28.595Y66.529
Y66.729
X24.553
X24.547Y66.762
X24.486Y66.950
X24.427Y67.125
X24.348Y67.291
X24.346Y67.295
X24.533Y67.333
X24.715Y67.393
X24.887Y67.475
X25.100Y67.592
X25.295Y67.742
X25.464Y67.921
X25.603Y68.121
X25.715Y68.291
X25.806Y68.477
X25.872Y68.673
X25.912Y68.876
X25.917Y68.952
X29.438
X29.470Y69.011
X29.587Y69.176
X29.724Y69.325
X29.889Y69.475
X30.074Y69.601
X30.244Y69.713
X30.430Y69.804
X30.626Y69.870
X30.829Y69.910
X31.033Y69.923
X31.511
X31.625Y69.919
X31.452Y69.991
X31.288Y70.083
X31.136Y70.195
X31.000Y70.322
X30.947Y70.375
X30.804Y70.530
X30.681Y70.706
X30.583Y70.899
X30.511Y71.103
X30.497Y71.174
X26.881
Y71.311
X26.869Y71.509
X26.832Y71.704
X26.771Y71.892
X26.701Y72.094
X26.603Y72.285
X26.480Y72.462
X26.336Y72.619
X26.283Y72.673
X26.230Y72.726
X26.081Y72.863
X25.916Y72.980
X25.737Y73.076
X25.571Y73.155
X25.396Y73.214
X25.208Y73.275
X25.013Y73.312
X24.815Y73.324
X24.337
X24.140Y73.312
X23.944Y73.274
X23.754Y73.213
X23.575Y73.129
X23.272Y72.949
X23.088Y72.823
X22.923Y72.673
X22.870Y72.619
X22.816Y72.566
X22.797Y72.548
X22.569Y72.483
X22.352Y72.385
X22.174Y72.290
X22.009Y72.172
X21.860Y72.035
X21.807Y71.982
X21.754Y71.929
X21.701Y71.876
X21.563Y71.727
X21.446Y71.561
X21.351Y71.383
X21.298Y71.277
X21.249Y71.174
G0Z5.080
G0X19.462Y73.397
G1Z-3.000F300.0
G1X31.258F1000.0
G0Z5.080
G0X31.617Y62.284
G1Z-3.000F300.0
G1X31.777F1000.0
X31.974Y62.297
X32.170Y62.334
X32.360Y62.396
X32.539Y62.480
X32.737Y62.587
X32.921Y62.724
X33.084Y62.887
X33.221Y63.071
X33.328Y63.269
X33.412Y63.448
X33.474Y63.638
X33.511Y63.834
X33.523Y64.031
Y64.191
X33.510Y64.397
X33.488Y64.507
X63.500
Y66.729
X33.862
X33.846Y66.815
X33.785Y67.004
X33.726Y67.178
X33.647Y67.345
X33.469Y67.644
X33.470Y67.698
Y67.910
X33.458Y68.108
X33.421Y68.303
X33.360Y68.491
X33.290Y68.693
X33.192Y68.885
X33.145Y68.952
X63.500
Y71.174
X34.270
X34.324Y71.344
X34.361Y71.539
X34.374Y71.736
Y71.949
X34.361Y72.147
X34.324Y72.343
X34.263Y72.532
X34.179Y72.712
X34.083Y72.890
X33.966Y73.055
X33.829Y73.204
X33.776Y73.257
X33.627Y73.394
X33.623Y73.397
X63.500
Y75.619
X22.549
X22.664Y75.698
X22.829Y75.848
X22.882Y75.901
X22.935Y75.955
X23.073Y76.103
X23.190Y76.269
X23.285Y76.447
X23.338Y76.553
X23.413Y76.708
X23.470Y76.871
X23.509Y77.038
X23.567Y77.280
X23.587Y77.528
Y77.688
X23.575Y77.842
X63.500
Y80.064
X22.491
X22.533Y80.089
X22.717Y80.215
X22.882Y80.365
X22.935Y80.418
X22.989Y80.471
X23.042Y80.524
X23.095Y80.578
X23.206Y80.695
X23.371Y80.812
X23.520Y80.950
X23.573Y81.003
X23.626Y81.056
X23.763Y81.204
X23.881Y81.370
X23.976Y81.548
X24.050Y81.703
X24.108Y81.866
X24.147Y82.033
X24.204Y82.270
X24.205Y82.287
X63.500
Y84.509
X29.060
Y85.021
X29.048Y85.218
X29.010Y85.415
X28.949Y85.604
X28.865Y85.784
X28.812Y85.890
X28.716Y86.068
X28.599Y86.234
X28.462Y86.382
X28.409Y86.435
X28.355Y86.489
X28.302Y86.542
X28.249Y86.595
X28.196Y86.648
X28.104Y86.732
X63.500
Y88.842
X63.496Y88.896
X63.460Y88.899
X18.772
G0Z5.080
G0X29.226Y6.370
G1Z-3.000F300.0
G1X29.438F1000.0
G2X31.026Y4.782I0.000J-1.588
G1Y4.623
G2X29.438Y3.036I-1.588J0.000
G1X29.226
G2X27.638Y4.623I0.000J1.588
G1Y4.782
G2X29.226Y6.370I1.588J0.000
G0Z5.080
G0X63.442Y0.053
G1Z-3.000F300.0
G1X63.496Y0.057F1000.0
X63.500Y0.111
Y88.842
X63.496Y88.896
X63.442Y88.900
X18.771
X18.791Y88.880
X18.844Y88.827
X18.897Y88.773
G2X19.247Y88.281I-1.096J-1.149
G1X19.300Y88.175
X19.353Y88.068
X19.491Y87.727
G2X19.601Y87.146I-1.477J-0.581
G1Y86.881
G2X19.491Y86.300I-1.588J0.000
G1X19.353Y85.959
G2X19.003Y85.466I-1.445J0.656
G1X18.950Y85.413
X18.897Y85.360
X18.844Y85.307
G2X18.117Y84.872I-1.149J1.096
G2X17.536Y84.762I-0.581J1.477
G1X17.110
X16.677Y84.822
X16.526Y84.815
X16.473
X16.030Y84.878
G2X15.445Y85.063I0.177J1.578
G1X15.338Y85.116
G2X14.846Y85.466I0.656J1.445
G1X14.793Y85.519
X14.739Y85.573
X14.686Y85.626
G2X14.337Y86.118I1.096J1.149
G1X14.283Y86.224
X14.230Y86.331
X14.177Y86.437
X14.039Y86.778
X14.023Y86.819
G2X13.699Y87.287I1.121J1.124
G1X13.561Y87.628
G2X13.451Y88.209I1.477J0.581
G1Y88.581
X13.483Y88.900
X0.058
X0.004Y88.896
X0.000Y88.842
Y0.111
X0.004Y0.057
X0.058Y0.053
X63.442
G0Z5.080
G0X33.041Y27.969
G1Z-3.000F300.0
G2X33.391Y28.462I1.445J-0.656F1000.0
G1X33.444Y28.515
X33.497Y28.568
X33.550Y28.621
G2X34.043Y28.971I1.149J-1.096
G1X34.149Y29.024
X34.232Y29.066
X34.521Y29.237
X34.627Y29.290
X34.734Y29.343
G2X35.218Y29.514I0.763J-1.392
G2X35.709Y29.591I0.490J-1.510
G1X35.921
X36.329Y29.538
X36.400
G2X36.981Y29.428I0.000J-1.588
G1X37.140Y29.375
G2X37.677Y29.110I-0.422J-1.530
G1X37.837Y29.003
X38.186Y28.727
X38.239Y28.674
X38.292Y28.621
X38.345Y28.568
X38.399Y28.515
X38.452Y28.462
X38.505Y28.409
X38.558Y28.355
X38.834Y28.006
G2X39.099Y27.469I-1.265J-0.959
G2X39.209Y26.888I-1.477J-0.581
G1Y26.569
G2X39.099Y25.988I-1.588J0.000
G1X38.961Y25.647
G2X38.611Y25.155I-1.445J0.656
G1X38.558Y25.101
X38.505Y25.048
X38.452Y24.995
G2X37.959Y24.645I-1.149J1.096
G2X37.474Y24.475I-0.763J1.392
G1X37.156Y24.406
X37.146Y24.400
X36.843Y24.220
X36.502Y24.082
X36.343Y24.029
G2X35.762Y23.919I-0.581J1.477
G1X35.337
G2X34.756Y24.029I0.000J1.588
G2X34.029Y24.464I0.422J1.530
G1X33.975Y24.517
X33.922Y24.570
X33.869Y24.623
G2X33.519Y25.116I1.096J1.149
G1X33.466Y25.222
X33.390Y25.383
X33.307Y25.541
X33.265Y25.623
X33.094Y25.913
G2X32.924Y26.397I1.392J0.763
G2X32.846Y26.888I1.510J0.490
G1Y27.207
G2X33.041Y27.969I1.588J0.000
G0Z5.080
G0X29.692Y20.702
G1Z-3.000F300.0
G1X29.492Y20.751F1000.0
G2X29.013Y20.677I-0.478J1.514
G1X28.588
G2X27.826Y20.873I0.000J1.588
G2X27.333Y21.222I0.656J1.445
G1X27.057Y21.572
X26.877Y21.874
X26.739Y22.215
G2X26.629Y22.796I1.477J0.581
G1Y23.187
X26.567Y23.231
X26.217Y23.507
X26.164Y23.560
X26.111Y23.614
X26.058Y23.667
X26.005Y23.720
X25.952Y23.773
X25.898Y23.826
X25.845Y23.879
X25.792Y23.932
G2X25.442Y24.425I1.096J1.149
G1X25.389Y24.531
G2X25.219Y25.016I1.392J0.763
G2X25.141Y25.506I1.510J0.490
G1Y25.825
G2X25.219Y26.315I1.588J0.000
G1X25.304Y26.619
X25.363Y26.792
X25.230Y27.029
G2X25.035Y27.791I1.392J0.763
G1Y28.269
X25.062Y28.562
X25.059Y28.576
G2X24.982Y29.067I1.510J0.490
G1Y29.492
G2X25.059Y29.982I1.588J0.000
G2X25.230Y30.467I1.563J-0.278
G2X25.580Y30.959I1.445J-0.656
G1X25.633Y31.012
X25.686Y31.066
X25.739Y31.119
G2X26.466Y31.554I1.149J-1.096
G2X27.047Y31.664I0.581J-1.477
G1X27.313
G2X27.894Y31.554I0.000J-1.588
G2X28.621Y31.119I-0.422J-1.530
G1X28.674Y31.066
X28.727Y31.012
X28.781Y30.959
X29.057Y30.610
X29.237Y30.307
X29.375Y29.966
X29.428Y29.807
X29.481Y29.648
G2X29.591Y29.067I-1.477J-0.581
G1Y28.748
X29.538Y28.340
Y27.897
G2X29.428Y27.316I-1.588J0.000
G1X29.423Y27.300
X29.684Y27.080
X29.707Y27.058
X30.003Y26.814
X30.056Y26.761
X30.109Y26.708
X30.154Y26.663
G2X30.595Y26.562I-0.131J-1.582
G1X30.997Y26.499
G2X31.583Y26.314I-0.177J-1.578
G1X31.689Y26.261
G2X32.181Y25.911I-0.656J-1.445
G1X32.235Y25.858
X32.288Y25.805
X32.341Y25.752
X32.394Y25.699
X32.447Y25.645
X32.500Y25.592
X32.553Y25.539
X32.607Y25.486
X32.660Y25.433
X32.713Y25.380
X32.766Y25.327
G2X33.116Y24.834I-1.096J-1.149
G1X33.169Y24.728
X33.307Y24.387
X33.357Y24.238
X33.541Y23.931
X33.594Y23.825
X33.732Y23.484
G2X33.842Y22.903I-1.477J-0.581
G1Y22.477
G2X33.647Y21.715I-1.588J0.000
G1X33.594Y21.609
G2X33.244Y21.116I-1.445J0.656
G1X33.191Y21.063
G2X32.699Y20.713I-1.149J1.096
G1X32.592Y20.660
G2X31.830Y20.465I-0.763J1.392
G1X31.405
G2X30.832Y20.572I0.000J1.588
G1X30.466Y20.624
X30.182
G2X29.692Y20.702I0.000J1.588
G0Z5.080
G0X11.549Y30.508
G1Z-3.000F300.0
G2X11.003Y30.618I0.035J1.587F1000.0
G1X10.662Y30.756
G2X10.170Y31.106I0.656J1.445
G1X10.116Y31.159
X10.063Y31.212
X10.010Y31.265
X9.957Y31.319
X9.904Y31.372
G2X9.554Y31.864I1.096J1.149
G1X9.501Y31.970
X9.448Y32.077
X9.395Y32.183
G2X9.228Y32.646I1.392J0.763
G1X9.097Y32.733
X9.015Y32.775
X8.909Y32.829
X8.802Y32.882
X8.694Y32.936
G2X7.885Y33.391I0.339J1.551
G2X7.535Y33.883I1.096J1.149
G2X7.340Y34.646I1.392J0.763
G1Y34.752
G2X7.535Y35.515I1.588J0.000
G2X7.835Y35.958I1.445J-0.656
G2X8.150Y36.379I1.411J-0.727
G1X8.204Y36.432
X8.553Y36.708
X8.789Y36.857
G2X9.107Y37.283I1.413J-0.723
G1X9.160Y37.336
X9.213Y37.389
X9.266Y37.442
G2X9.759Y37.792I1.149J-1.096
G1X10.100Y37.930
G2X10.681Y38.040I0.581J-1.477
G1X11.000
G2X11.581Y37.930I0.000J-1.587
G1X11.922Y37.792
G2X12.315Y37.537I-0.656J-1.445
G1X12.316Y37.537
G2X12.806Y37.615I0.490J-1.510
G1X12.848
X13.213Y37.845
X13.554Y37.983
X13.686Y38.029
X13.607Y38.057
G2X12.880Y38.492I0.422J1.530
G1X12.827Y38.545
X12.773Y38.598
X12.720Y38.652
X12.667Y38.705
X12.614Y38.758
X12.338Y39.107
X12.232Y39.267
X12.125Y39.426
G2X11.860Y39.963I1.265J0.959
G1X11.760Y40.367
X11.697Y40.810
Y41.076
G2X11.807Y41.657I1.588J0.000
G1X11.865Y41.827
X11.512Y41.968
X11.449Y41.999
X11.324Y42.042
G2X10.466Y42.361I0.101J1.584
G1X10.116Y42.637
X10.063Y42.690
X10.010Y42.743
X9.957Y42.796
X9.707Y43.103
G2X9.196Y43.212I0.070J1.586
G2X8.643Y43.490I0.422J1.530
G2X7.918Y43.314I-0.725J1.412
G1X7.758
G2X7.177Y43.424I0.000J1.587
G2X6.450Y43.859I0.422J1.530
G1X6.397Y43.912
X6.344Y43.965
G2X5.994Y44.458I1.096J1.149
G2X5.799Y45.221I1.392J0.763
G1Y45.539
G2X5.994Y46.302I1.588J0.000
G2X6.344Y46.794I1.445J-0.656
G2X6.836Y47.144I1.149J-1.096
G2X7.599Y47.339I0.763J-1.392
G1X7.864
G2X8.627Y47.144I0.000J-1.587
G1X8.814Y47.044
X8.909Y47.091
G2X9.671Y47.286I0.763J-1.392
G1X9.990
G2X10.753Y47.091I0.000J-1.588
G1X10.859Y47.038
X11.225Y46.807
X11.494Y46.855
X11.484Y47.027
Y47.399
G2X11.680Y48.162I1.588J0.000
G2X12.029Y48.654I1.445J-0.656
G2X12.522Y49.004I1.149J-1.096
G2X13.285Y49.199I0.763J-1.392
G1X13.710
G2X14.858Y48.707I0.000J-1.588
G1X14.912Y48.654
X14.965Y48.601
G2X15.315Y48.109I-1.096J-1.149
G1X15.452Y47.771
X15.535Y47.729
X15.765Y47.600
X15.888Y47.605
X16.154
G2X16.917Y47.410I0.000J-1.587
G2X17.409Y47.060I-0.656J-1.445
G1X17.462Y47.007
X17.515Y46.954
G2X17.865Y46.461I-1.096J-1.149
G1X18.003Y46.120
X18.104Y45.717
X18.142Y45.551
X18.195Y45.339
X18.248Y45.126
X18.279Y45.021
X18.578Y44.775
X18.631Y44.722
X18.684Y44.669
X18.737Y44.616
X19.013Y44.266
X19.194Y43.964
G2X19.389Y43.201I-1.392J-0.763
G1Y42.723
G2X19.279Y42.142I-1.588J0.000
G1X19.140Y41.801
X19.040Y41.614
X19.119Y41.391
G2X19.229Y40.810I-1.477J-0.581
G1Y40.438
G2X18.737Y39.289I-1.588J0.000
G1X18.684Y39.236
X18.631Y39.183
X18.578Y39.130
G2X18.086Y38.780I-1.149J1.096
G1X18.078Y38.776
G2X17.918Y38.347I-1.552J0.334
G2X17.568Y37.855I-1.445J0.656
G1X17.515Y37.801
G2X17.023Y37.452I-1.149J1.096
G1X16.917Y37.398
G2X16.154Y37.203I-0.763J1.392
G1X16.003
X16.112Y37.003
X16.165Y36.896
G2X16.360Y36.134I-1.392J-0.763
G1Y35.709
G2X16.165Y34.946I-1.588J0.000
G1X16.112Y34.840
G2X15.762Y34.347I-1.445J0.656
G1X15.709Y34.294
X15.655Y34.241
X15.602Y34.188
X15.520Y34.108
X15.588Y34.072
G2X16.081Y33.722I-0.656J-1.445
G1X16.134Y33.669
X16.187Y33.616
G2X16.537Y33.124I-1.096J-1.149
G1X16.590Y33.017
X16.728Y32.676
G2X16.838Y32.095I-1.477J-0.581
G1Y31.670
G2X16.728Y31.089I-1.588J0.000
G2X16.463Y30.552I-1.530J0.422
G1X16.187Y30.203
X16.134Y30.150
X15.784Y29.874
G2X15.103Y29.576I-0.959J1.265
G1X14.869Y29.519
X14.791Y29.481
G2X14.028Y29.286I-0.763J1.392
G1X13.550
G2X12.969Y29.396I0.000J1.588
G1X12.628Y29.534
G2X12.136Y29.884I0.656J1.445
G1X12.083Y29.937
X12.029Y29.990
X11.976Y30.043
X11.923Y30.096
X11.870Y30.150
X11.817Y30.203
X11.764Y30.256
X11.549Y30.508
G0Z5.080
G0X11.044Y63.424
G1Z-3.000F300.0
G1X11.042Y63.428F1000.0
X10.989Y63.534
G2X10.794Y64.297I1.392J0.763
G1Y64.775
G2X10.989Y65.538I1.588J0.000
G1X11.042Y65.644
G2X11.392Y66.137I1.445J-0.656
G1X11.445Y66.190
G2X11.937Y66.540I1.149J-1.096
G1X12.278Y66.678
G2X12.859Y66.788I0.581J-1.477
G1X13.125
X13.193Y66.786
X13.008Y67.095
X12.955Y67.201
X12.817Y67.542
X12.726Y67.877
X12.597Y67.921
X12.438Y67.974
X12.139Y68.090
X12.013Y68.134
X11.672Y68.272
X11.382Y68.442
X11.104Y68.611
X10.754Y68.887
X10.701Y68.940
X10.648Y68.993
X10.595Y69.047
X10.542Y69.100
X10.488Y69.153
X10.212Y69.502
G2X9.947Y70.039I1.265J0.959
G1X9.847Y70.443
X9.784Y70.886
Y71.099
G2X9.862Y71.589I1.588J0.000
G2X10.032Y72.074I1.563J-0.278
G1X10.085Y72.180
G2X10.435Y72.673I1.445J-0.656
G1X10.488Y72.726
X10.542Y72.779
X10.595Y72.832
G2X11.087Y73.182I1.149J-1.096
G1X11.428Y73.320
G2X12.009Y73.430I0.581J-1.477
G1X12.434
G2X12.925Y73.353I0.000J-1.587
G2X13.367Y73.204I-0.278J-1.563
G1X13.639Y73.095
X13.692Y73.101
X13.696Y73.103
X13.720Y73.168
G2X13.985Y73.705I1.530J-0.422
G1X14.261Y74.054
X14.314Y74.107
X14.368Y74.161
G2X14.860Y74.510I1.149J-1.096
G1X14.966Y74.563
G2X15.451Y74.734I0.763J-1.392
G2X15.941Y74.812I0.490J-1.510
G1X16.207
X16.368Y74.804
X16.334Y74.839
X16.281Y74.892
G2X15.931Y75.384I1.096J1.149
G1X15.878Y75.491
X15.856Y75.530
G2X15.038Y75.303I-0.818J1.360
G1X14.879
G2X13.291Y76.891I0.000J1.588
G1Y77.103
G2X14.222Y78.549I1.588J0.000
G2X14.985Y78.744I0.763J-1.392
G1X15.038
G2X16.187Y78.252I0.000J-1.588
G2X16.466Y77.898I-1.096J-1.149
G1X16.802Y78.113
X16.949Y78.209
X17.251Y78.389
X17.357Y78.443
G2X17.842Y78.613I0.763J-1.392
G1X18.081Y78.671
X18.140Y78.730
X18.193Y78.784
X18.247Y78.837
G2X18.739Y79.186I1.149J-1.096
G1X18.845Y79.240
X19.186Y79.378
X19.454Y79.457
X19.555Y79.540
X19.324Y79.643
G2X18.831Y79.993I0.656J1.445
G1X18.778Y80.046
G2X18.286Y81.195I1.096J1.149
G1Y81.567
G2X18.778Y82.716I1.588J0.000
G1X18.831Y82.769
X18.884Y82.822
X19.043Y82.967
X19.119Y83.127
X19.197Y83.276
X19.189Y83.427
Y84.064
G2X19.300Y84.645I1.588J0.000
G1X19.438Y84.986
X19.618Y85.289
X19.750Y85.481
G2X19.916Y85.943I1.559J-0.300
G1X19.969Y86.049
G2X20.319Y86.542I1.445J-0.656
G1X20.372Y86.595
X20.425Y86.648
X20.478Y86.701
G2X21.206Y87.136I1.149J-1.096
G2X21.787Y87.246I0.581J-1.477
G1X22.212
G2X22.793Y87.136I0.000J-1.588
G2X23.427Y86.791I-0.422J-1.530
G1X23.463Y86.768
X23.593
G2X24.081Y86.691I0.000J-1.587
G2X24.531Y86.998I1.106J-1.139
G1X24.637Y87.051
G2X25.400Y87.246I0.763J-1.392
G1X25.471
X25.878Y87.299
X26.728
G2X27.309Y87.189I0.000J-1.587
G2X27.847Y86.924I-0.422J-1.530
G1X28.196Y86.648
X28.249Y86.595
X28.302Y86.542
X28.355Y86.489
X28.409Y86.435
X28.462Y86.382
G2X28.812Y85.890I-1.096J-1.149
G1X28.865Y85.784
G2X29.060Y85.021I-1.392J-0.763
G1Y84.436
G2X28.865Y83.674I-1.588J0.000
G2X28.515Y83.181I-1.445J0.656
G1X28.462Y83.128
X28.409Y83.075
X28.355Y83.022
X28.302Y82.969
X27.953Y82.693
G2X27.272Y82.395I-0.959J1.265
G2X26.782Y82.318I-0.490J1.510
G1X26.516
G2X26.026Y82.395I0.000J1.587
G1X25.813Y82.448
X25.510Y82.534
X25.441Y82.555
G2X24.956Y82.725I0.278J1.563
G1X24.850Y82.778
X24.781Y82.812
X24.462Y82.619
X24.224Y82.513
G2X24.147Y82.033I-1.587J0.010
G2X23.976Y81.548I-1.563J0.278
G2X23.626Y81.056I-1.445J0.656
G1X23.573Y81.003
X23.520Y80.950
X23.206Y80.695
X23.095Y80.578
X23.042Y80.524
X22.989Y80.471
X22.935Y80.418
X22.882Y80.365
X22.533Y80.089
X22.230Y79.909
X22.092Y79.841
X22.124Y79.824
X22.426Y79.644
X22.776Y79.368
X22.829Y79.315
X22.882Y79.262
X22.935Y79.209
X23.211Y78.859
G2X23.509Y78.178I-1.265J-0.959
G2X23.587Y77.688I-1.510J-0.490
G1Y77.528
G2X23.509Y77.038I-1.588J0.000
G2X23.338Y76.553I-1.563J0.278
G1X23.285Y76.447
G2X22.935Y75.955I-1.445J0.656
G1X22.882Y75.901
X22.829Y75.848
X22.480Y75.572
X22.177Y75.392
X22.071Y75.339
X21.965Y75.286
G2X21.480Y75.115I-0.763J1.392
G1X21.444Y75.104
X21.380Y75.073
G2X20.655Y74.879I-0.763J1.392
G1X20.246Y74.825
X20.000
X19.960Y74.786
X19.907Y74.732
G2X19.414Y74.383I-1.149J1.096
G1X19.308Y74.329
X18.967Y74.191
X18.830Y74.144
X19.056Y73.948
X19.109Y73.895
G2X19.459Y73.402I-1.096J-1.149
G1X19.597Y73.061
G2X19.708Y72.480I-1.477J-0.581
G1Y72.215
G2X19.597Y71.634I-1.588J0.000
G1X19.559Y71.513
X19.907Y71.238
X19.960Y71.185
X20.013Y71.132
X20.066Y71.078
X20.119Y71.025
X20.172Y70.972
G2X20.607Y70.245I-1.096J-1.149
G2X20.717Y69.664I-1.477J-0.581
G1Y69.292
G2X20.640Y68.802I-1.588J0.000
G2X20.469Y68.317I-1.563J0.278
G1X20.289Y68.015
X20.182Y67.855
X19.907Y67.506
X19.853Y67.452
X19.800Y67.399
X19.747Y67.346
X19.592Y67.203
X19.498Y66.817
X19.548Y66.423
Y66.210
X19.534Y65.997
X19.548Y65.785
Y65.342
X19.577Y65.213
G2X19.654Y64.722I-1.510J-0.490
G1Y64.297
X19.620Y63.969
X19.714Y63.972
X19.845
G2X20.542Y64.227I0.879J-1.322
G1X20.646Y64.377
X20.447Y64.704
X20.309Y65.045
G2X20.199Y65.626I1.477J0.581
G1Y66.582
G2X20.394Y67.345I1.588J0.000
G2X20.744Y67.837I1.445J-0.656
G1X20.797Y67.890
X20.850Y67.943
G2X21.470Y68.344I1.149J-1.096
G1X21.298Y68.636
X21.159Y68.977
G2X21.049Y69.558I1.477J0.581
G1Y70.302
G2X21.127Y70.792I1.588J0.000
G2X21.298Y71.277I1.563J-0.278
G1X21.351Y71.383
G2X21.701Y71.876I1.445J-0.656
G1X21.754Y71.929
X21.807Y71.982
X21.860Y72.035
G2X22.352Y72.385I1.149J-1.096
G2X22.797Y72.548I0.763J-1.392
G1X22.816Y72.566
X22.870Y72.619
X22.923Y72.673
X23.272Y72.949
X23.575Y73.129
G2X24.337Y73.324I0.763J-1.392
G1X24.815
G2X25.396Y73.214I0.000J-1.588
G1X25.737Y73.076
G2X26.230Y72.726I-0.656J-1.445
G1X26.283Y72.673
X26.336Y72.619
G2X26.771Y71.892I-1.096J-1.149
G2X26.881Y71.311I-1.477J-0.581
G1Y70.833
G2X26.686Y70.070I-1.588J0.000
G1X26.633Y69.964
G2X26.283Y69.472I-1.445J0.656
G1X26.230Y69.419
X26.177Y69.365
X26.124Y69.312
X26.071Y69.259
X26.017Y69.206
X25.925Y69.116
Y69.079
G2X25.603Y68.121I-1.588J0.000
G2X24.887Y67.475I-1.372J0.799
G2X24.346Y67.295I-0.763J1.392
G1X24.348Y67.291
X24.486Y66.950
G2X24.596Y66.369I-1.477J-0.581
G1Y65.785
X24.545Y65.383
G2X24.955Y65.074I-0.739J-1.405
G1X25.008Y65.021
X25.061Y64.968
X25.114Y64.914
X25.167Y64.861
G2X25.517Y64.369I-1.096J-1.149
G2X25.712Y63.606I-1.392J-0.763
G1Y63.128
X25.685Y62.836
X25.712Y62.544
Y61.853
X25.695Y61.620
G2X26.199Y61.364I-0.454J-1.521
G1X26.549Y61.089
X26.602Y61.035
X26.655Y60.982
X26.708Y60.929
G2X27.056Y60.441I-1.096J-1.149
G1X27.150Y60.407
X27.448Y60.292
X27.757Y60.163
X28.059Y59.983
X28.409Y59.707
X28.432Y59.684
X28.727Y59.441
X29.003Y59.092
G2X29.269Y58.555I-1.265J-0.959
G2X29.379Y57.974I-1.477J-0.581
G1Y57.602
G2X29.301Y57.111I-1.588J0.000
G2X29.003Y56.430I-1.563J0.278
G1X28.727Y56.081
X28.422Y55.831
X28.219Y55.678
X28.196Y55.656
X28.143Y55.603
X28.090Y55.550
X28.037Y55.496
X27.984Y55.443
G2X27.491Y55.093I-1.149J1.096
G1X27.385Y55.040
G2X26.622Y54.845I-0.763J1.392
G1X26.356
G2X25.594Y55.040I0.000J1.587
G1X25.488Y55.093
G2X24.998Y55.440I0.656J1.445
G2X24.562Y55.295I-0.714J1.418
G2X24.072Y55.217I-0.490J1.510
G1X23.912
G2X23.331Y55.327I0.000J1.587
G2X22.604Y55.762I0.422J1.530
G1X22.551Y55.815
X22.498Y55.868
G2X22.148Y56.361I1.096J1.149
G1X22.095Y56.467
G2X21.924Y56.952I1.392J0.763
G2X21.846Y57.442I1.510J0.490
G1Y57.495
X21.875Y57.793
X21.578Y57.878
G2X20.850Y58.313I0.422J1.530
G1X20.797Y58.366
X20.744Y58.419
X20.691Y58.472
X20.481Y58.718
G2X19.927Y58.618I-0.554J1.488
G1X19.555
G2X18.792Y58.813I0.000J1.588
G1X18.445Y59.028
X18.245Y58.919
X17.904Y58.781
G2X17.339Y58.671I-0.581J1.477
G2X16.997Y58.382I-1.185J1.056
G2X16.363Y58.037I-1.055J1.186
G2X15.782Y57.927I-0.581J1.477
G1X15.463
G2X14.882Y58.037I0.000J1.588
G1X14.541Y58.175
X14.435Y58.229
X14.133Y58.409
X13.783Y58.685
X13.730Y58.738
X13.729Y58.739
X13.529Y58.814
X13.426Y58.840
X13.022Y58.941
X12.681Y59.079
X12.575Y59.132
X12.469Y59.185
G2X12.006Y59.504I0.656J1.445
G1X11.711Y59.747
X11.657Y59.801
X11.414Y60.096
X11.169Y60.416
X10.989Y60.718
X10.936Y60.824
X10.798Y61.165
X10.712Y61.469
G2X10.634Y61.959I1.510J0.490
G1Y62.225
G2X10.744Y62.806I1.588J0.000
G1X10.883Y63.147
X11.044Y63.424
G0Z5.080
G0X29.970Y63.406
G1Z-3.000F300.0
G2X29.406Y63.786I0.585J1.476F1000.0
G1X29.352Y63.839
X29.299Y63.892
G2X28.949Y64.385I1.096J1.149
G2X28.754Y65.147I1.392J0.763
G1Y65.519
X28.771Y65.746
X28.758Y65.788
X28.705Y65.948
G2X28.595Y66.529I1.477J0.581
G1Y67.007
G2X28.705Y67.588I1.588J0.000
G2X29.140Y68.315I1.530J-0.422
G1X29.174Y68.350
X29.321Y68.726
X29.375Y68.832
G2X29.724Y69.325I1.445J-0.656
G1X30.074Y69.601
G2X31.033Y69.923I0.959J-1.265
G1X31.511
X31.625Y69.919
G2X31.000Y70.322I0.524J1.499
G1X30.947Y70.375
G2X30.455Y71.524I1.096J1.149
G1Y71.896
G2X30.650Y72.658I1.587J0.000
G2X31.000Y73.151I1.445J-0.656
G1X31.053Y73.204
X31.106Y73.257
G2X31.598Y73.607I1.149J-1.096
G2X32.361Y73.802I0.763J-1.392
G1X32.521
G2X33.283Y73.607I0.000J-1.587
G2X33.776Y73.257I-0.656J-1.445
G1X33.829Y73.204
G2X34.179Y72.712I-1.096J-1.149
G2X34.374Y71.949I-1.392J-0.763
G1Y71.736
G2X34.264Y71.155I-1.588J0.000
G2X33.829Y70.428I-1.530J0.422
G1X33.776Y70.375
G2X33.283Y70.025I-1.149J1.096
G2X32.521Y69.830I-0.763J1.392
G1X32.149
X32.035Y69.834
X32.273Y69.728
G2X32.766Y69.378I-0.656J-1.445
G1X32.819Y69.325
X32.872Y69.272
X32.925Y69.219
G2X33.360Y68.491I-1.096J-1.149
G2X33.470Y67.910I-1.477J-0.581
G1Y67.698
X33.469Y67.644
X33.647Y67.345
X33.785Y67.004
G2X33.895Y66.423I-1.477J-0.581
G1Y65.997
G2X33.700Y65.235I-1.588J0.000
G2X33.404Y64.796I-1.445J0.656
G2X33.523Y64.191I-1.468J-0.605
G1Y64.031
G2X33.328Y63.269I-1.587J0.000
G2X32.539Y62.480I-1.445J0.656
G2X31.777Y62.284I-0.763J1.392
G1X31.617
G2X30.855Y62.480I0.000J1.588
G2X30.362Y62.829I0.656J1.445
G2X30.012Y63.322I1.096J1.149
G1X29.970Y63.406
G0Z5.080
G0X63.460Y0.054
G1Z-4.000F300.0
G1X0.040F1000.0
X0.004Y0.057
X0.000Y0.111
Y2.277
X27.712
X27.641Y2.327
X27.493Y2.465
X27.439Y2.518
X27.386Y2.571
X27.248Y2.722
X27.128Y2.890
X27.032Y3.073
X26.961Y3.265
X26.866Y3.495
X26.808Y3.738
X26.788Y3.985
Y4.499
X0.000
Y6.722
X27.760
X27.822Y6.839
X27.940Y7.005
X28.077Y7.153
X28.242Y7.304
X28.427Y7.429
X28.594Y7.540
X28.774Y7.629
X28.964Y7.695
X29.152Y7.755
X29.347Y7.792
X29.545Y7.805
X30.023
X30.221Y7.792
X30.416Y7.755
X30.604Y7.695
X30.779Y7.635
X30.945Y7.556
X31.123Y7.461
X31.289Y7.344
X31.437Y7.207
X31.491Y7.153
X31.544Y7.100
X31.597Y7.047
X31.734Y6.899
X31.852Y6.733
X31.858Y6.722
G0Z5.080
G0X30.197Y2.277
G1Z-4.000F300.0
G1X63.500F1000.0
G0Z5.080
G0Y4.499
G1Z-4.000F300.0
G1X50.127F1000.0
X50.145Y4.550
X50.184Y4.717
X50.242Y4.959
X50.262Y5.208
Y5.261
X50.242Y5.509
X50.184Y5.751
X50.145Y5.918
X50.088Y6.081
X50.014Y6.236
X49.919Y6.414
X49.801Y6.580
X49.670Y6.722
X63.500
Y8.944
G0Z5.080
G0X30.197Y2.277
G1Z-4.000F300.0
G1X30.303Y2.335F1000.0
X30.338Y2.349
X30.513Y2.408
X30.679Y2.487
X30.982Y2.667
X30.989Y2.671
X31.186Y2.742
X31.375Y2.839
X31.548Y2.960
X31.703Y3.102
X31.846Y3.257
X31.968Y3.433
X32.067Y3.626
X32.138Y3.831
X32.181Y4.041
X32.195Y4.251
Y4.499
X45.257
X45.223Y4.602
X45.186Y4.797
X45.174Y4.995
Y5.154
X45.186Y5.352
X45.223Y5.547
X45.284Y5.735
X45.337Y5.895
X45.408Y6.096
X45.505Y6.288
X45.628Y6.465
X45.772Y6.622
X45.825Y6.675
X45.872Y6.722
X31.858
G0Z5.080
G0X63.500Y8.944
G1Z-4.000F300.0
G1X0.000F1000.0
Y11.167
X63.500
Y13.389
X0.000
Y15.612
X14.080
X13.928Y15.721
X13.783Y15.855
X13.633Y16.020
X13.507Y16.205
X13.458Y16.274
X13.198Y16.493
X13.145Y16.546
X13.092Y16.599
X13.039Y16.652
X12.986Y16.706
X12.933Y16.759
X12.796Y16.907
X12.678Y17.073
X12.583Y17.251
X12.504Y17.418
X12.445Y17.592
X12.384Y17.781
X12.374Y17.834
X0.000
Y20.057
X12.886
X12.889Y20.060
X13.039Y20.225
X13.092Y20.278
X13.145Y20.332
X13.294Y20.469
X13.459Y20.586
X13.638Y20.681
X13.804Y20.760
X13.979Y20.820
X14.167Y20.880
X14.362Y20.917
X14.560Y20.930
X14.826
X15.023Y20.917
X15.218Y20.880
X15.407Y20.820
X15.596Y20.754
X15.777Y20.665
X15.944Y20.554
X16.103Y20.448
X16.249Y20.352
X16.332Y20.309
X16.438Y20.256
X16.617Y20.161
X16.764Y20.057
G0Z5.080
G0X20.705Y15.612
G1Z-4.000F300.0
G1X63.500F1000.0
G0Z5.080
G0Y17.834
G1Z-4.000F300.0
G1X29.643F1000.0
X29.768Y17.970
X29.885Y18.136
X29.981Y18.314
X30.034Y18.420
X30.118Y18.599
X30.179Y18.789
X30.217Y18.985
X30.229Y19.183
Y19.608
X30.215Y19.819
X30.173Y20.027
X30.169Y20.057
X30.535
G0Z5.080
G0X20.705Y15.612
G1Z-4.000F300.0
G1X20.809Y15.761F1000.0
X20.908Y15.954
X20.979Y16.159
X21.022Y16.369
X21.036Y16.579
Y16.845
X21.014Y17.110
X21.036Y17.376
Y17.536
X21.024Y17.733
X21.004Y17.834
X26.577
X26.452Y17.970
X26.335Y18.136
X26.239Y18.314
X26.186Y18.420
X26.081Y18.657
X25.952Y18.778
X25.898Y18.831
X25.845Y18.884
X25.792Y18.937
X25.721Y19.010
X25.563Y19.124
X25.420Y19.256
X25.367Y19.309
X25.314Y19.363
X25.261Y19.416
X25.208Y19.469
X25.155Y19.522
X25.017Y19.670
X24.900Y19.836
X24.805Y20.014
X24.783Y20.057
X16.764
G0Z5.080
G0X24.868Y22.279
G1Z-4.000F300.0
G1X22.114F1000.0
X21.931Y22.186
X21.730Y22.116
X21.542Y22.055
X21.346Y22.018
X21.149Y22.006
X20.990
X20.792Y22.018
X20.597Y22.055
X20.409Y22.116
X20.234Y22.175
X20.068Y22.254
X20.017Y22.279
X0.000
Y24.502
X18.821
X18.830Y24.641
X18.867Y24.837
X18.929Y25.027
X19.013Y25.206
X19.108Y25.385
X19.225Y25.550
X19.363Y25.699
X19.416Y25.752
X19.469Y25.805
X19.522Y25.858
X19.670Y25.995
X19.836Y26.113
X20.014Y26.208
X20.194Y26.292
X20.383Y26.353
X20.579Y26.391
X20.777Y26.403
X21.149
X21.346Y26.391
X21.542Y26.354
X21.730Y26.293
X21.931Y26.223
X22.123Y26.125
X22.300Y26.002
X22.457Y25.858
X22.510Y25.805
X22.563Y25.752
X22.617Y25.699
X22.754Y25.550
X22.871Y25.385
X22.966Y25.206
X23.050Y25.027
X23.112Y24.837
X23.149Y24.641
X23.158Y24.502
X25.091
G0Z5.080
G0X24.610Y26.724
G1Z-4.000F300.0
G1X0.000F1000.0
Y28.947
X23.899
X23.817Y29.121
X23.756Y29.311
X23.719Y29.507
X23.706Y29.704
Y30.076
X23.719Y30.274
X23.756Y30.470
X23.817Y30.660
X23.901Y30.839
X23.955Y30.945
X24.088Y31.169
G0Z5.080
G0X29.963Y28.947
G1Z-4.000F300.0
G1X31.483F1000.0
G0Z5.080
G0X33.549Y20.057
G1Z-4.000F300.0
G1X63.500F1000.0
Y22.279
X35.987
X36.118Y22.349
X36.284Y22.467
X36.432Y22.604
X36.486Y22.657
X36.539Y22.710
X36.676Y22.859
X36.793Y23.024
X36.889Y23.203
X36.963Y23.358
X37.020Y23.520
X37.059Y23.687
X37.070Y23.723
X37.101Y23.787
X37.157Y23.899
X37.296Y23.798
X37.446Y23.713
X37.603Y23.645
X37.688Y23.480
X37.791Y23.325
X37.905Y23.156
X38.040Y23.002
X38.194Y22.867
X38.363Y22.753
X38.534Y22.641
X38.719Y22.550
X38.916Y22.484
X39.119Y22.444
X39.322Y22.431
X39.694
X39.898Y22.444
X40.100Y22.484
X40.297Y22.550
X40.483Y22.641
X40.653Y22.753
X40.837Y22.879
X41.002Y23.029
X41.139Y23.178
X41.257Y23.343
X41.352Y23.522
X41.431Y23.688
X41.490Y23.862
X41.551Y24.051
X41.588Y24.246
X41.600Y24.444
Y24.502
X63.500
Y26.724
X40.007
X39.993Y26.758
X39.949Y26.884
X39.879Y27.086
X39.781Y27.278
X39.659Y27.454
X39.514Y27.612
X39.505Y27.621
X39.439Y27.757
X39.259Y28.059
X39.133Y28.244
X38.983Y28.409
X38.930Y28.462
X38.877Y28.515
X38.824Y28.568
X38.771Y28.621
X38.717Y28.674
X38.552Y28.825
X38.373Y28.947
X63.500
Y31.169
X28.986
X28.887Y31.278
X28.834Y31.331
X28.669Y31.482
X28.484Y31.607
X28.182Y31.787
X28.020Y31.864
X27.851Y31.923
X27.703Y32.023
X27.544Y32.106
X27.378Y32.185
X27.203Y32.244
X27.015Y32.305
X26.820Y32.342
X26.622Y32.354
X25.931
X25.734Y32.342
X25.538Y32.305
X25.348Y32.243
X25.169Y32.159
X24.866Y31.979
X24.682Y31.853
X24.517Y31.703
X24.464Y31.650
X24.411Y31.597
X24.260Y31.432
X24.135Y31.247
X24.088Y31.169
X17.471
X17.463Y31.048
X17.426Y30.852
X17.366Y30.664
X17.306Y30.490
X17.227Y30.323
X17.132Y30.145
X17.015Y29.979
X16.878Y29.831
X16.825Y29.778
X16.771Y29.724
X16.718Y29.671
X16.570Y29.534
X16.404Y29.417
X16.226Y29.321
X16.071Y29.247
X15.908Y29.190
X15.741Y29.151
X15.499Y29.093
X15.251Y29.073
X15.197
X14.949Y29.093
X14.707Y29.151
X14.591Y29.176
X14.408Y29.119
X14.219Y29.085
X14.028Y29.073
X13.497
X13.300Y29.086
X13.104Y29.123
X12.916Y29.183
X12.742Y29.242
X12.575Y29.321
X12.469Y29.375
X12.363Y29.428
X12.060Y29.608
X11.876Y29.734
X11.711Y29.884
X11.657Y29.937
X11.604Y29.990
X11.551Y30.043
X11.498Y30.096
X11.362Y30.243
X11.186Y30.260
X11.012Y30.297
X10.844Y30.352
X10.669Y30.412
X10.503Y30.491
X10.396Y30.544
X10.218Y30.639
X10.053Y30.756
X9.904Y30.893
X9.851Y30.947
X9.798Y31.000
X9.745Y31.053
X9.638Y31.169
G0Z5.080
G0X24.088
G1Z-4.000F300.0
G1X17.471F1000.0
X17.463Y31.048
X17.426Y30.852
X17.366Y30.664
X17.306Y30.490
X17.227Y30.323
X17.132Y30.145
X17.015Y29.979
X16.878Y29.831
X16.825Y29.778
X16.771Y29.724
X16.718Y29.671
X16.570Y29.534
X16.404Y29.417
X16.226Y29.321
X16.071Y29.247
X15.908Y29.190
X15.741Y29.151
X15.499Y29.093
X15.251Y29.073
X15.197
X14.949Y29.093
X14.707Y29.151
X14.591Y29.176
X14.408Y29.119
X14.219Y29.085
X14.028Y29.073
X13.497
X13.300Y29.086
X13.104Y29.123
X12.916Y29.183
X12.742Y29.242
X12.575Y29.321
X12.469Y29.375
X12.363Y29.428
X12.060Y29.608
X11.876Y29.734
X11.711Y29.884
X11.657Y29.937
X11.604Y29.990
X11.551Y30.043
X11.498Y30.096
X11.362Y30.243
X11.186Y30.260
X11.012Y30.297
X10.844Y30.352
X10.669Y30.412
X10.503Y30.491
X10.396Y30.544
X10.218Y30.639
X10.053Y30.756
X9.904Y30.893
X9.851Y30.947
X9.798Y31.000
X9.745Y31.053
X9.638Y31.169
X8.435
X8.395Y31.150
X8.205Y31.089
X8.009Y31.052
X7.811Y31.039
X7.546
X7.348Y31.052
X7.152Y31.089
X6.962Y31.150
X6.922Y31.169
X0.000
Y33.392
X5.010
X5.002Y33.530
Y33.548
X4.953Y33.832
X4.792Y34.059
X4.686Y34.219
X4.577Y34.383
X4.489Y34.560
X4.424Y34.746
X4.314Y34.910
X4.134Y35.212
X4.050Y35.391
X3.988Y35.581
X3.982Y35.614
X0.000
Y37.837
X4.668
X4.788Y37.948
X4.949Y38.064
X5.139Y38.209
X5.348Y38.323
X5.515Y38.402
X5.689Y38.461
X5.878Y38.522
X6.073Y38.559
X6.270Y38.572
X6.483
X6.731Y38.552
X6.973Y38.494
X7.141Y38.455
X7.303Y38.398
X7.458Y38.323
X7.636Y38.228
X7.802Y38.111
X7.950Y37.973
X8.004Y37.920
X8.057Y37.867
X8.087Y37.837
X8.924
G0Z5.080
G0X11.464Y40.059
G1Z-4.000F300.0
G1X0.000F1000.0
Y42.282
X8.161
X8.065Y42.314
X7.899Y42.393
X7.721Y42.489
X7.555Y42.606
X7.406Y42.743
X7.372Y42.777
X7.177Y42.840
X7.003Y42.899
X6.836Y42.978
X6.730Y43.031
X6.551Y43.126
X6.386Y43.244
X6.237Y43.381
X6.184Y43.434
X6.131Y43.487
X6.078Y43.540
X6.025Y43.593
X5.972Y43.647
X5.919Y43.700
X5.865Y43.753
X5.728Y43.901
X5.611Y44.067
X5.516Y44.245
X5.406Y44.504
X0.000
Y46.727
X2.735
X2.713Y46.794
X2.676Y46.989
X2.664Y47.187
Y47.618
X2.657
X2.459Y47.631
X2.264Y47.668
X2.076Y47.729
X1.901Y47.788
X1.735Y47.867
X1.556Y47.962
X1.391Y48.079
X1.242Y48.216
X1.189Y48.270
X1.136Y48.323
X1.083Y48.376
X1.030Y48.429
X0.886Y48.586
X0.763Y48.763
X0.668Y48.949
X0.000
G0Z5.080
G0X9.638Y31.169
G1Z-4.000F300.0
G1X8.435F1000.0
G0Z5.080
G0X16.854Y33.392
G1Z-4.000F300.0
G1X30.974F1000.0
X30.980Y33.381
X31.022Y33.299
X31.075Y33.193
X31.170Y33.014
X31.288Y32.849
X31.425Y32.700
X31.478Y32.647
X31.531Y32.594
X31.584Y32.541
X31.733Y32.404
X31.898Y32.286
X32.077Y32.191
X32.243Y32.112
X32.418Y32.053
X32.606Y31.992
X32.801Y31.955
X32.999Y31.943
X33.211
X33.409Y31.955
X33.604Y31.992
X33.792Y32.053
X33.994Y32.123
X34.185Y32.221
X34.362Y32.344
X34.519Y32.488
X34.573Y32.541
X34.626Y32.594
X34.679Y32.647
X34.816Y32.796
X34.934Y32.961
X35.029Y33.139
X35.082Y33.246
X35.148Y33.392
X63.500
Y35.614
X35.491
X35.465Y35.721
X35.379Y36.024
X35.320Y36.199
X35.241Y36.365
X35.061Y36.667
X34.935Y36.852
X34.785Y37.017
X34.732Y37.070
X34.583Y37.207
X34.418Y37.325
X34.240Y37.420
X34.060Y37.504
X33.871Y37.566
X33.675Y37.603
X33.477Y37.615
X33.105
X32.907Y37.603
X32.711Y37.566
X32.522Y37.504
X32.342Y37.420
X32.164Y37.325
X31.999Y37.207
X31.850Y37.070
X31.797Y37.017
X31.660Y36.868
X31.542Y36.703
X31.447Y36.525
X31.428Y36.489
X31.425Y36.486
X31.372Y36.432
X31.319Y36.379
X31.265Y36.326
X31.115Y36.161
X30.989Y35.977
X30.809Y35.674
X30.781Y35.614
X17.739
G0Z5.080
G0X19.209Y37.837
G1Z-4.000F300.0
G1X63.500F1000.0
Y40.059
X20.335
X20.345Y40.226
Y40.597
X20.333Y40.795
X20.296Y40.991
X20.234Y41.181
X20.150Y41.360
X20.057Y41.536
X19.941Y41.699
X19.807Y41.846
X19.853Y41.893
X19.907Y41.946
X20.044Y42.095
X20.161Y42.260
X20.173Y42.282
X63.500
Y44.504
X21.760
X21.768Y44.545
X21.780Y44.742
Y45.008
X21.768Y45.205
X21.731Y45.401
X21.670Y45.589
X21.611Y45.763
X21.532Y45.930
X21.479Y46.036
X21.298Y46.339
X21.185Y46.508
X21.049Y46.662
X20.975Y46.727
X63.500
Y48.949
X16.043
X16.017Y49.059
X15.968Y49.257
X15.894Y49.449
X15.796Y49.629
X15.829Y49.950
Y50.162
X15.816Y50.360
X15.779Y50.556
X15.717Y50.746
X15.633Y50.925
X15.538Y51.103
X15.489Y51.172
G0Z5.080
G0X11.476Y48.949
G1Z-4.000F300.0
G1X8.505F1000.0
X8.482Y48.973
X8.429Y49.026
X8.280Y49.163
X8.115Y49.281
X7.936Y49.376
X7.757Y49.460
X7.567Y49.522
X7.371Y49.559
X7.174Y49.571
X7.118
X7.243Y49.744
X7.344Y49.931
X7.428Y50.110
X7.489Y50.300
X7.527Y50.496
X7.539Y50.694
Y51.172
X12.339Y51.172
X12.365Y51.209
X12.508Y51.364
X12.561Y51.417
X12.614Y51.471
X12.769Y51.613
X12.945Y51.736
X13.138Y51.834
X13.342Y51.906
X13.553Y51.948
X13.763Y51.962
X14.028
X14.226Y51.950
X14.422Y51.913
X14.612Y51.851
X14.791Y51.767
X14.969Y51.672
X15.135Y51.555
X15.284Y51.417
X15.421Y51.269
X15.489Y51.172
X63.500
Y53.394
G0Z5.080
G0X15.489Y51.172
G1Z-4.000F300.0
G1X63.500F1000.0
Y53.394
X30.304
X30.384Y53.564
X30.445Y53.754
X30.482Y53.950
X30.495Y54.148
Y54.413
X30.482Y54.611
X30.445Y54.807
X30.384Y54.997
X30.299Y55.176
X30.204Y55.354
X30.087Y55.520
X29.997Y55.617
G0Z5.080
G0X63.500Y53.394
G1Z-4.000F300.0
G1X30.304F1000.0
X30.299Y53.385
X30.204Y53.207
X30.087Y53.041
X29.950Y52.893
X29.896Y52.839
X29.843Y52.786
X29.678Y52.636
X29.494Y52.510
X29.191Y52.330
X29.085Y52.277
X28.906Y52.193
X28.716Y52.132
X28.520Y52.094
X28.323Y52.082
X27.951
X27.753Y52.094
X27.557Y52.132
X27.367Y52.193
X27.188Y52.277
X27.082Y52.330
X26.872Y52.446
X26.679Y52.593
X26.511Y52.768
X26.373Y52.965
X26.125Y53.074
X26.019Y53.127
X25.841Y53.222
X25.675Y53.340
X25.616Y53.394
X7.424
X7.429Y53.407
X7.490Y53.596
X7.527Y53.791
X7.539Y53.988
Y54.467
X7.527Y54.664
X7.490Y54.859
X7.429Y55.048
X7.358Y55.249
X7.261Y55.441
X7.138Y55.617
G0Z5.080
G0X0.302Y53.394
G1Z-4.000F300.0
G1X0.000F1000.0
Y55.617
X2.322
X2.402Y55.898
X2.461Y56.072
X2.540Y56.239
X2.635Y56.417
X2.753Y56.583
X2.890Y56.731
X2.943Y56.784
X2.996Y56.837
X3.145Y56.975
X3.310Y57.092
X3.488Y57.187
X3.668Y57.271
X3.857Y57.333
X4.053Y57.370
X4.251Y57.382
X4.517
X4.714Y57.370
X4.910Y57.333
X5.100Y57.271
X5.279Y57.187
X5.458Y57.092
X5.623Y56.975
X5.772Y56.837
X5.825Y56.784
X5.878Y56.731
X5.931Y56.678
X6.055Y56.546
X6.162Y56.401
X6.183Y56.390
X6.289Y56.337
X6.467Y56.242
X6.633Y56.124
X6.781Y55.987
X6.835Y55.934
X6.888Y55.881
X6.941Y55.828
X6.994Y55.775
X7.138Y55.617
X20.760Y55.617
X20.744Y55.691
X20.730Y55.901
Y56.061
X20.744Y56.271
X20.787Y56.481
X20.859Y56.685
X20.957Y56.878
X21.080Y57.054
X21.222Y57.209
X21.262Y57.249
Y57.336
X21.284Y57.602
X21.068Y57.702
X20.868Y57.834
X20.862Y57.839
G0Z5.080
G0X7.138Y55.617
G1Z-4.000F300.0
G1X20.760F1000.0
X20.744Y55.691
X20.730Y55.901
Y56.061
X20.744Y56.271
X20.787Y56.481
X20.859Y56.685
X20.957Y56.878
X21.080Y57.054
X21.222Y57.209
X21.262Y57.249
Y57.336
X21.284Y57.602
X21.068Y57.702
X20.868Y57.834
X20.862Y57.839
X17.095
G0Z5.080
G0X20.862
G1Z-4.000F300.0
G1X17.095F1000.0
X17.023Y57.803
X16.917Y57.750
X16.750Y57.671
X16.576Y57.612
X16.387Y57.551
X16.192Y57.514
X15.995Y57.502
X15.410
X15.212Y57.514
X15.016Y57.552
X14.827Y57.613
X14.647Y57.697
X14.541Y57.750
X14.375Y57.838
X14.373Y57.839
X0.000
Y60.062
X11.000
X10.930Y60.160
X10.785Y60.349
X10.670Y60.559
X10.617Y60.665
X10.543Y60.820
X10.485Y60.982
X10.446Y61.150
X10.388Y61.392
X10.369Y61.640
Y61.800
X10.372Y61.906
X10.369Y62.012
Y62.284
X0.000
Y64.507
X8.716
X8.575Y64.636
X8.522Y64.689
X8.469Y64.742
X8.416Y64.796
X8.363Y64.849
X8.213Y65.014
X8.087Y65.198
X7.907Y65.501
X7.828Y65.667
X7.769Y65.842
X7.708Y66.030
X7.671Y66.225
X7.659Y66.423
Y66.688
X7.661Y66.729
X0.000
Y68.952
X9.949
X9.904Y68.993
X9.851Y69.047
X9.798Y69.100
X9.745Y69.153
X9.691Y69.206
X9.554Y69.355
X9.437Y69.520
X9.342Y69.698
X9.288Y69.805
X9.209Y69.971
X9.150Y70.146
X9.089Y70.334
X9.052Y70.529
X9.040Y70.727
Y71.152
X9.042Y71.174
X0.000
Y73.397
X10.789
X10.875Y73.448
X10.981Y73.501
X11.087Y73.554
X11.266Y73.638
X11.456Y73.699
X11.652Y73.737
X11.850Y73.749
X12.328
X12.526Y73.737
X12.721Y73.700
X12.909Y73.639
X13.150Y73.551
X13.379Y73.585
X13.625Y73.682
X13.646Y73.721
X13.741Y73.900
X13.858Y74.065
X13.996Y74.214
X14.049Y74.267
X14.102Y74.320
X14.155Y74.373
X14.208Y74.426
X14.252Y74.470
X14.138Y74.510
X13.964Y74.569
X13.797Y74.648
X13.691Y74.701
X13.513Y74.797
X13.347Y74.914
X13.198Y75.051
X13.145Y75.104
X13.092Y75.157
X13.039Y75.211
X12.986Y75.264
X12.849Y75.412
X12.731Y75.578
X12.709Y75.619
X0.000
Y77.842
X12.547
Y78.166
X12.560Y78.364
X12.597Y78.560
X12.658Y78.749
X12.742Y78.929
X12.796Y79.035
X12.891Y79.213
X13.008Y79.379
X13.145Y79.527
X13.198Y79.581
X13.252Y79.634
X13.400Y79.771
X13.566Y79.888
X13.744Y79.984
X13.850Y80.037
X13.909Y80.064
X0.000
Y82.287
G0Z5.080
G0X17.112Y80.064
G1Z-4.000F300.0
G1X15.955F1000.0
G0Z5.080
G0X0.000Y82.287
G1Z-4.000F300.0
G1X16.760F1000.0
X16.819Y82.456
X16.917Y82.647
X17.040Y82.824
X17.184Y82.981
X17.237Y83.035
X17.290Y83.088
X17.343Y83.141
X17.396Y83.194
X17.545Y83.331
X17.710Y83.449
X17.889Y83.544
X18.053Y83.622
X18.225Y83.681
X18.193Y83.713
X18.140Y83.766
X18.087Y83.819
X18.034Y83.872
X17.981Y83.925
X17.875Y84.037
X17.539Y84.128
X17.365Y84.187
X17.198Y84.266
X16.940Y84.414
X16.848Y84.447
X16.699Y84.496
X16.048
X15.850Y84.509
X15.845Y84.509
X0.000
Y86.732
X12.465
X12.410Y86.840
X12.338Y87.045
X12.296Y87.255
X12.282Y87.465
Y87.890
X12.294Y88.088
X12.331Y88.284
X12.393Y88.474
X12.477Y88.653
X12.616Y88.899
X0.040
G0Z5.080
G0X20.974Y71.174
G1Z-4.000F300.0
G1X20.341F1000.0
X20.332Y71.185
X20.278Y71.238
X20.225Y71.291
X20.172Y71.344
X20.153Y71.364
X20.186Y71.683
Y71.690
X20.192
X20.390Y71.702
X20.586Y71.739
X20.776Y71.801
X20.955Y71.885
X21.133Y71.980
X21.299Y72.098
X21.448Y72.235
X21.501Y72.288
X21.554Y72.341
X21.607Y72.394
X21.744Y72.543
X21.862Y72.708
X21.957Y72.887
X22.010Y72.993
X22.094Y73.172
X22.156Y73.362
X22.162Y73.397
X23.473
X23.575Y73.448
X23.878Y73.575
X23.932Y73.629
X23.986Y73.682
X24.039Y73.735
X24.092Y73.789
X24.257Y73.939
X24.441Y74.064
X24.608Y74.175
X24.789Y74.264
X24.978Y74.330
X25.167Y74.390
X25.362Y74.427
X25.559Y74.440
X26.091
X26.288Y74.427
X26.484Y74.390
X26.674Y74.329
X26.853Y74.245
X27.032Y74.149
X27.197Y74.032
X27.346Y73.895
X27.399Y73.842
X27.452Y73.789
X27.505Y73.735
X27.558Y73.682
X27.696Y73.534
X27.793Y73.397
G0Z5.080
G0X29.997Y55.617
G1Z-4.000F300.0
G1X42.691F1000.0
X42.606Y55.776
X42.527Y55.943
X42.468Y56.117
X42.407Y56.306
X42.370Y56.501
X42.358Y56.698
Y56.751
X42.377Y57.000
X42.435Y57.242
X42.475Y57.409
X42.532Y57.572
X42.606Y57.727
X42.666Y57.839
X30.123
Y57.867
X30.110Y58.065
X30.073Y58.261
X30.012Y58.451
X29.927Y58.630
X29.832Y58.808
X29.715Y58.974
X29.578Y59.122
X29.525Y59.176
X29.471Y59.229
X29.418Y59.282
X29.270Y59.419
X29.104Y59.537
X28.926Y59.632
X28.819Y59.685
X28.682Y59.752
X28.621Y59.813
X28.476Y59.948
X28.317Y60.062
X46.468
X46.564Y60.080
X46.762Y60.093
X46.974
X47.172Y60.080
X47.268Y60.062
G0Z5.080
G0X63.500Y55.617
G1Z-4.000F300.0
G1X46.137F1000.0
X46.236Y55.767
X46.336Y55.984
X46.602Y55.961
X47.027
X47.225Y55.973
X47.421Y56.011
X47.611Y56.072
X47.790Y56.156
X47.896Y56.209
X48.094Y56.317
X48.278Y56.454
X48.441Y56.617
X48.578Y56.800
X48.685Y56.998
X48.738Y57.105
X48.822Y57.284
X48.884Y57.474
X48.921Y57.670
X48.932Y57.839
X63.500
Y60.062
X47.268
G0Z5.080
G0X34.299Y64.507
G1Z-4.000F300.0
G1X34.321Y64.297F1000.0
Y63.819
X34.308Y63.621
X34.271Y63.425
X34.209Y63.235
X34.125Y63.056
X34.072Y62.950
X33.977Y62.772
X33.860Y62.606
X33.722Y62.457
X33.669Y62.404
X33.616Y62.351
X33.563Y62.298
X33.548Y62.284
X63.500
X33.548
X33.414Y62.161
X33.249Y62.043
X33.071Y61.948
X32.964Y61.895
X32.858Y61.842
X32.703Y61.768
X32.541Y61.710
X32.373Y61.671
X32.131Y61.613
X31.883Y61.594
X31.759
X31.557Y61.554
X31.351Y61.541
X30.873
X30.676Y61.553
X30.481Y61.590
X30.292Y61.651
X30.118Y61.710
X29.951Y61.789
X29.649Y61.969
X29.464Y62.095
X29.299Y62.245
X29.260Y62.284
X27.244
X27.217Y62.322
X27.080Y62.470
X27.027Y62.523
X26.974Y62.576
X26.921Y62.630
X26.868Y62.683
X26.814Y62.736
X26.761Y62.789
X26.708Y62.842
X26.568Y62.973
X26.412Y63.086
X26.244Y63.179
Y63.181
X26.230Y63.387
X26.190Y63.588
Y63.659
X26.156Y63.989
X26.267Y64.145
X26.412Y64.335
X26.506Y64.507
X28.021
X28.010Y64.669
Y65.254
X28.023Y65.451
X28.060Y65.647
X28.121Y65.837
X28.206Y66.016
X28.259Y66.122
X28.270Y66.146
X28.235Y66.336
X28.223Y66.529
Y66.729
X26.539
X26.497Y66.812
X26.374Y66.989
X26.230Y67.146
X26.177Y67.199
X26.124Y67.253
X26.071Y67.306
X26.017Y67.359
X26.015Y67.361
X26.121Y67.514
X26.208Y67.679
X26.261Y67.786
X26.314Y67.892
X26.393Y68.058
X26.452Y68.233
X26.513Y68.421
X26.550Y68.616
X26.562Y68.814
Y68.952
X28.932
X28.970Y69.028
X29.077Y69.188
X29.183Y69.347
X29.308Y69.532
X29.459Y69.697
X29.607Y69.834
X29.773Y69.952
X29.951Y70.047
X30.057Y70.100
X30.164Y70.153
X30.065Y70.336
X30.012Y70.442
X29.938Y70.597
X29.881Y70.760
X29.842Y70.927
X29.783Y71.169
X29.783Y71.174
X28.006
X28.045Y71.259
X28.107Y71.449
X28.144Y71.645
X28.157Y71.843
Y72.321
X28.144Y72.518
X28.107Y72.715
X28.045Y72.904
X27.961Y73.084
X27.908Y73.190
X27.813Y73.368
X27.793Y73.397
X30.303
X30.308Y73.475
X30.345Y73.671
X30.406Y73.861
X30.491Y74.040
X30.586Y74.218
X30.703Y74.384
X30.840Y74.532
X30.893Y74.586
X30.947Y74.639
X31.000Y74.692
X31.053Y74.745
X31.106Y74.798
X31.255Y74.935
X31.420Y75.053
X31.598Y75.148
X31.778Y75.232
X31.968Y75.294
X32.164Y75.331
X32.361Y75.343
X32.892
X33.090Y75.331
X33.286Y75.294
X33.476Y75.232
X33.655Y75.148
X33.761Y75.095
X33.940Y75.000
X34.105Y74.882
X34.254Y74.745
X34.307Y74.692
X34.457Y74.527
X34.583Y74.342
X34.763Y74.040
X34.816Y73.934
X34.869Y73.827
X34.922Y73.721
X34.976Y73.615
X35.055Y73.448
X35.072Y73.397
G0Z5.080
G0X27.793
G1Z-4.000F300.0
G1X30.303F1000.0
X30.308Y73.475
X30.345Y73.671
X30.406Y73.861
X30.491Y74.040
X30.586Y74.218
X30.703Y74.384
X30.840Y74.532
X30.893Y74.586
X30.947Y74.639
X31.000Y74.692
X31.053Y74.745
X31.106Y74.798
X31.255Y74.935
X31.420Y75.053
X31.598Y75.148
X31.778Y75.232
X31.968Y75.294
X32.164Y75.331
X32.361Y75.343
X32.892
X33.090Y75.331
X33.286Y75.294
X33.476Y75.232
X33.655Y75.148
X33.761Y75.095
X33.940Y75.000
X34.105Y74.882
X34.254Y74.745
X34.307Y74.692
X34.457Y74.527
X34.583Y74.342
X34.763Y74.040
X34.816Y73.934
X34.869Y73.827
X34.922Y73.721
X34.976Y73.615
X35.055Y73.448
X35.072Y73.397
G0Z5.080
G0X34.299Y64.507
G1Z-4.000F300.0
G1X35.103F1000.0
X35.074Y64.594
X35.037Y64.790
X35.025Y64.988
Y65.147
X35.037Y65.345
X35.074Y65.540
X35.135Y65.728
X35.194Y65.903
X35.273Y66.069
X35.453Y66.372
X35.579Y66.556
X35.729Y66.721
X35.737Y66.729
X35.064
G0Z5.080
G0X63.500Y62.284
G1Z-4.000F300.0
G1Y64.507F1000.0
X39.078
X39.107Y64.595
X39.144Y64.790
X39.156Y64.988
Y65.147
X39.140Y65.371
X39.093Y65.590
X39.057Y65.793
X38.995Y65.989
X38.908Y66.176
X38.813Y66.354
X38.695Y66.519
X38.558Y66.668
X38.505Y66.721
X38.497Y66.729
X63.500
Y68.952
X33.707
X33.647Y69.098
X33.594Y69.204
X33.470Y69.427
X33.636Y69.527
X33.788Y69.647
X33.949Y69.762
X34.094Y69.897
X34.148Y69.950
X34.201Y70.003
X34.254Y70.056
X34.391Y70.205
X34.508Y70.370
X34.604Y70.549
X34.657Y70.655
X34.723Y70.791
X34.842Y70.928
X34.944Y71.079
X34.995Y71.174
X63.500
Y73.397
X35.072
X63.500
Y75.619
X23.716
X23.732Y75.636
X23.786Y75.689
X23.923Y75.837
X24.040Y76.003
X24.135Y76.181
X24.189Y76.288
X24.273Y76.467
X24.334Y76.657
X24.371Y76.853
X24.384Y77.050
Y77.475
X24.364Y77.723
X24.336Y77.842
X63.500
Y80.064
X24.279
X24.436Y80.177
X24.583Y80.312
X24.636Y80.365
X24.689Y80.418
X24.742Y80.471
X24.879Y80.620
X24.997Y80.785
X25.092Y80.964
X25.176Y81.143
X25.238Y81.333
X25.275Y81.529
X25.287Y81.726
Y82.098
X25.284Y82.192
X25.335Y82.183
X25.648Y82.115
X25.813Y82.076
X25.882Y82.056
X26.070Y81.995
X26.265Y81.958
X26.463Y81.946
X26.835
X27.032Y81.958
X27.228Y81.995
X27.418Y82.057
X27.597Y82.141
X27.704Y82.194
X27.810Y82.247
X27.829Y82.256
X27.852Y82.241
X28.041Y82.096
X28.251Y81.981
X28.357Y81.928
X28.536Y81.844
X28.726Y81.783
X28.922Y81.745
X29.120Y81.733
X29.492
X29.689Y81.745
X29.884Y81.782
X30.073Y81.843
X30.230Y81.896
X30.475Y81.930
X30.710Y82.003
X30.912Y82.073
X31.103Y82.171
X31.271Y82.287
X63.500
Y84.509
X32.076
X32.032Y84.645
X31.950Y84.873
X31.834Y85.087
X31.687Y85.279
X31.572Y85.440
X31.437Y85.585
X31.384Y85.638
X31.331Y85.691
X31.278Y85.745
X31.130Y85.882
X30.964Y85.999
X30.786Y86.094
X30.679Y86.148
X30.573Y86.201
X30.513Y86.232
X30.451Y86.386
X30.372Y86.533
X30.279Y86.670
X30.237Y86.732
X63.500
Y88.842
X63.496Y88.896
X63.460Y88.899
X19.001
G0Z5.080
G0X16.612Y14.726
G1Z-4.000F300.0
G1X16.313F1000.0
G2X15.551Y14.921I0.000J1.588
G2X15.126Y15.204I0.656J1.445
G2X14.089Y15.606I0.019J1.587
G1X13.783Y15.855
X13.507Y16.205
X13.458Y16.274
X13.198Y16.493
X13.145Y16.546
X13.092Y16.599
X13.039Y16.652
X12.986Y16.706
X12.933Y16.759
G2X12.583Y17.251I1.096J1.149
G1X12.445Y17.592
G2X12.335Y18.173I1.477J0.581
G1Y18.651
G2X12.445Y19.232I1.588J0.000
G1X12.583Y19.573
X12.763Y19.876
X13.039Y20.225
X13.092Y20.278
X13.145Y20.332
G2X13.638Y20.681I1.149J-1.096
G1X13.979Y20.820
G2X14.560Y20.930I0.581J-1.477
G1X14.826
G2X15.407Y20.820I0.000J-1.588
G2X15.944Y20.554I-0.422J-1.530
G1X16.103Y20.448
X16.249Y20.352
X16.332Y20.309
X16.438Y20.256
G2X16.931Y19.907I-0.656J-1.445
G1X16.984Y19.853
X17.037Y19.800
X17.090Y19.747
X17.143Y19.694
X17.196Y19.641
X17.250Y19.588
X17.303Y19.535
X17.356Y19.481
X17.606Y19.176
X17.791Y18.919
X17.897Y18.761
X17.928Y18.791
G2X18.420Y19.140I1.149J-1.096
G2X19.183Y19.336I0.763J-1.392
G1X19.236
G2X19.999Y19.140I0.000J-1.588
G2X20.491Y18.791I-0.656J-1.445
G2X20.841Y18.298I-1.096J-1.149
G2X21.036Y17.536I-1.392J-0.763
G1Y17.376
X21.014Y17.110
X21.036Y16.845
Y16.579
G2X20.544Y15.430I-1.588J0.000
G1X20.491Y15.377
G2X19.563Y14.901I-1.149J1.096
G1X19.375Y14.686
X19.322Y14.633
G2X18.173Y14.141I-1.149J1.096
G1X17.908
G2X17.145Y14.337I0.000J1.588
G2X16.652Y14.686I0.656J1.445
G1X16.612Y14.726
G0Z5.080
G0X21.149Y22.006
G1Z-4.000F300.0
G1X20.990F1000.0
G2X20.409Y22.116I0.000J1.588
G1X20.068Y22.254
X19.961Y22.307
G2X19.469Y22.657I0.656J1.445
G2X19.119Y23.150I1.096J1.149
G1X19.066Y23.256
X19.013Y23.362
G2X18.818Y24.125I1.392J0.763
G1Y24.444
G2X19.013Y25.206I1.588J0.000
G2X19.363Y25.699I1.445J-0.656
G1X19.416Y25.752
X19.469Y25.805
X19.522Y25.858
G2X20.014Y26.208I1.149J-1.096
G2X20.777Y26.403I0.763J-1.392
G1X21.149
G2X21.730Y26.293I0.000J-1.588
G2X22.457Y25.858I-0.422J-1.530
G1X22.510Y25.805
X22.563Y25.752
X22.617Y25.699
G2X22.966Y25.206I-1.096J-1.149
G2X23.162Y24.444I-1.392J-0.763
G1Y23.965
G2X22.966Y23.203I-1.588J0.000
G2X22.617Y22.710I-1.445J0.656
G1X22.563Y22.657
X22.510Y22.604
X22.457Y22.551
G2X21.730Y22.116I-1.149J1.096
G2X21.149Y22.006I-0.581J1.477
G0Z5.080
G0X33.373Y19.937
G1Z-4.000F300.0
G2X32.836Y19.672I-0.959J1.265F1000.0
G2X32.255Y19.561I-0.581J1.477
G1X31.830
G2X31.249Y19.672I0.000J1.588
G2X30.712Y19.937I0.422J1.530
G1X30.362Y20.213
X30.246Y20.336
X30.161Y20.294
X30.149Y20.219
X30.173Y20.027
X30.229Y19.608
Y19.183
G2X30.034Y18.420I-1.588J0.000
G1X29.981Y18.314
G2X29.631Y17.822I-1.445J0.656
G2X29.138Y17.472I-1.149J1.096
G1X29.032Y17.419
G2X28.269Y17.223I-0.763J1.392
G1X27.951
G2X27.188Y17.419I0.000J1.588
G1X27.082Y17.472
G2X26.589Y17.822I0.656J1.445
G2X26.239Y18.314I1.096J1.149
G1X26.186Y18.420
X26.081Y18.657
X25.952Y18.778
X25.898Y18.831
X25.845Y18.884
X25.792Y18.937
X25.721Y19.010
X25.420Y19.256
X25.367Y19.309
X25.314Y19.363
X25.261Y19.416
X25.208Y19.469
X25.155Y19.522
G2X24.805Y20.014I1.096J1.149
G1X24.752Y20.121
G2X24.556Y20.883I1.392J0.763
G1Y21.308
G2X24.752Y22.071I1.588J0.000
G2X25.101Y22.563I1.445J-0.656
G2X25.594Y22.913I1.149J-1.096
G1X25.700Y22.966
X26.044Y23.105
Y23.213
X25.898Y23.348
X25.845Y23.401
X25.792Y23.454
X25.739Y23.507
X25.686Y23.560
X25.633Y23.614
X25.357Y23.963
G2X25.092Y24.500I1.265J0.959
G1X25.039Y24.660
G2X24.929Y25.204I1.477J0.581
G1X24.875Y25.613
Y25.663
X24.858Y25.700
X24.720Y26.041
G2X24.610Y26.622I1.477J0.581
G1Y26.888
G2X24.687Y27.378I1.588J0.000
G1X24.730Y27.557
G2X24.612Y28.074I1.467J0.606
G1X24.357Y28.290
X24.304Y28.343
G2X23.955Y28.835I1.096J1.149
G1X23.901Y28.942
G2X23.706Y29.704I1.392J0.763
G1Y30.076
G2X23.901Y30.839I1.588J0.000
G1X23.955Y30.945
X24.135Y31.247
X24.411Y31.597
X24.464Y31.650
X24.517Y31.703
X24.866Y31.979
X25.169Y32.159
G2X25.931Y32.354I0.763J-1.392
G1X26.622
G2X27.203Y32.244I0.000J-1.588
G1X27.544Y32.106
X27.851Y31.923
X28.182Y31.787
X28.484Y31.607
X28.834Y31.331
X28.887Y31.278
X29.163Y30.929
G2X29.419Y30.424I-1.265J-0.959
G1X29.476Y30.299
X29.662Y29.989
X29.715Y29.882
X29.853Y29.541
G2X29.963Y28.960I-1.477J-0.581
G1Y28.376
X29.907Y27.957
G2X29.806Y27.490I-1.584J0.100
G1X29.843Y27.452
X29.896Y27.399
X29.950Y27.346
X29.978Y27.318
X30.020Y27.302
X30.045Y27.295
X30.393Y27.569
X30.695Y27.749
X30.801Y27.802
G2X31.358Y27.984I0.763J-1.392
G1Y28.323
G2X31.468Y28.904I1.588J0.000
G2X31.733Y29.441I1.530J-0.422
G1X32.009Y29.790
X32.063Y29.843
X32.412Y30.119
X32.714Y30.299
G2X33.477Y30.495I0.763J-1.392
G1X33.849
G2X34.612Y30.299I0.000J-1.588
G1X34.914Y30.119
X35.113Y29.982
X35.165Y29.992
G2X35.656Y30.070I0.490J-1.510
G1X35.921
G2X36.684Y29.874I0.000J-1.588
G1X36.790Y29.821
X36.999Y29.707
X37.034Y29.694
X37.375Y29.556
X37.677Y29.375
X37.837Y29.269
X37.983Y29.173
X38.066Y29.130
X38.368Y28.950
X38.717Y28.674
X38.771Y28.621
X38.824Y28.568
X38.877Y28.515
X38.930Y28.462
X38.983Y28.409
X39.259Y28.059
X39.439Y27.757
X39.505Y27.621
X39.514Y27.612
G2X39.949Y26.884I-1.096J-1.149
G1X39.993Y26.758
X40.093Y26.511
X40.457Y26.367
G2X40.949Y26.017I-0.656J-1.445
G1X41.002Y25.964
G2X41.352Y25.472I-1.096J-1.149
G1X41.405Y25.366
G2X41.600Y24.603I-1.392J-0.763
G1Y24.444
G2X41.490Y23.862I-1.588J0.000
G1X41.352Y23.522
G2X41.002Y23.029I-1.445J0.656
G1X40.653Y22.753
G2X39.694Y22.431I-0.959J1.265
G1X39.322
G2X38.363Y22.753I0.000J1.588
G2X37.791Y23.325I0.799J1.372
G1X37.603Y23.645
G2X37.157Y23.899I0.550J1.489
G1X37.101Y23.787
X37.070Y23.723
X37.059Y23.687
G2X36.889Y23.203I-1.563J0.278
G2X36.539Y22.710I-1.445J0.656
G1X36.486Y22.657
X36.432Y22.604
G2X35.940Y22.254I-1.149J1.096
G2X35.177Y22.059I-0.763J1.392
G1X34.699
X34.321Y22.105
Y21.574
G2X34.125Y20.811I-1.588J0.000
G1X34.072Y20.705
G2X33.722Y20.213I-1.445J0.656
G1X33.373Y19.937
G0Z5.080
G0X32.142Y5.792
G1Z-4.000F300.0
G1Y5.367F1000.0
X32.114Y5.071
G2X32.195Y4.570I-1.506J-0.501
G1Y4.251
G2X31.703Y3.102I-1.588J0.000
G2X30.989Y2.671I-1.149J1.096
G1X30.982Y2.667
X30.679Y2.487
X30.338Y2.349
X30.303Y2.335
X30.095Y2.221
X29.989Y2.168
X29.882Y2.115
G2X29.120Y1.920I-0.763J1.392
G1X28.748
G2X27.985Y2.115I0.000J1.588
G2X27.493Y2.465I0.656J1.445
G1X27.439Y2.518
X27.386Y2.571
G2X26.961Y3.265I1.096J1.149
G2X26.788Y3.985I1.415J0.720
G1Y4.570
G2X26.898Y5.151I1.588J0.000
G1X27.037Y5.492
X27.090Y5.598
X27.143Y5.704
G2X27.402Y6.104I1.445J-0.656
G1X27.551Y6.304
X27.621Y6.448
X27.674Y6.555
X27.727Y6.661
G2X28.077Y7.153I1.445J-0.656
G1X28.427Y7.429
G2X28.964Y7.695I0.959J-1.265
G2X29.545Y7.805I0.581J-1.477
G1X30.023
G2X30.604Y7.695I0.000J-1.588
G1X30.945Y7.556
G2X31.437Y7.207I-0.656J-1.445
G1X31.491Y7.153
X31.544Y7.100
X31.597Y7.047
G2X31.947Y6.555I-1.096J-1.149
G2X32.142Y5.792I-1.392J-0.763
G0Z5.080
G0X48.777Y7.269
G1Z-4.000F300.0
G1X49.118Y7.131F1000.0
G2X49.611Y6.781I-0.656J-1.445
G1X49.664Y6.728
G2X50.014Y6.236I-1.096J-1.149
G2X50.184Y5.751I-1.392J-0.763
G2X50.262Y5.261I-1.510J-0.490
G1Y5.208
G2X50.184Y4.717I-1.588J0.000
G2X50.014Y4.232I-1.563J0.278
G1X49.961Y4.126
G2X49.611Y3.634I-1.445J0.656
G1X49.558Y3.580
X49.504Y3.527
X49.451Y3.474
G2X48.959Y3.124I-1.149J1.096
G2X48.196Y2.929I-0.763J1.392
G1X47.718
G2X47.147Y3.036I0.000J1.588
G1X47.080
G2X46.318Y3.231I0.000J1.588
G2X45.825Y3.580I0.656J1.445
G1X45.772Y3.634
X45.719Y3.687
G2X45.284Y4.414I1.096J1.149
G2X45.174Y4.995I1.477J0.581
G1Y5.154
G2X45.284Y5.735I1.588J0.000
G1X45.337Y5.895
G2X45.772Y6.622I1.530J-0.422
G1X45.825Y6.675
X45.878Y6.728
X45.932Y6.781
G2X46.659Y7.216I1.149J-1.096
G2X47.240Y7.326I0.581J-1.477
G1X47.364
X47.771Y7.380
X48.196
G2X48.777Y7.269I0.000J-1.588
G0Z5.080
G0X35.543Y35.231
G1Z-4.000F300.0
G1Y34.859F1000.0
G2X35.348Y34.096I-1.588J0.000
G1X35.294Y33.990
X35.276Y33.951
G2X35.082Y33.246I-1.586J0.058
G1X35.029Y33.139
G2X34.679Y32.647I-1.445J0.656
G1X34.626Y32.594
X34.573Y32.541
X34.519Y32.488
G2X33.792Y32.053I-1.149J1.096
G2X33.211Y31.943I-0.581J1.477
G1X32.999
G2X32.418Y32.053I0.000J1.588
G1X32.077Y32.191
G2X31.584Y32.541I0.656J1.445
G1X31.531Y32.594
X31.478Y32.647
X31.425Y32.700
G2X31.075Y33.193I1.096J1.149
G1X31.022Y33.299
X30.980Y33.381
X30.809Y33.671
X30.671Y34.012
G2X30.561Y34.593I1.477J0.581
G1Y34.752
G2X30.671Y35.333I1.588J0.000
G1X30.809Y35.674
X30.989Y35.977
X31.265Y36.326
X31.319Y36.379
X31.372Y36.432
X31.425Y36.486
X31.428Y36.489
X31.447Y36.525
G2X31.797Y37.017I1.445J-0.656
G1X31.850Y37.070
G2X32.342Y37.420I1.149J-1.096
G2X33.105Y37.615I0.763J-1.392
G1X33.477
G2X34.240Y37.420I0.000J-1.587
G2X34.732Y37.070I-0.656J-1.445
G1X34.785Y37.017
X35.061Y36.667
X35.241Y36.365
X35.379Y36.024
X35.465Y35.721
G2X35.543Y35.231I-1.510J-0.490
G0Z5.080
G0X44.636Y54.739
G1Z-4.000F300.0
G1X44.211F1000.0
G2X43.448Y54.934I0.000J1.587
G2X42.956Y55.284I0.656J1.445
G2X42.606Y55.776I1.096J1.149
G1X42.468Y56.117
G2X42.358Y56.698I1.477J0.581
G1Y56.751
G2X42.435Y57.242I1.587J0.000
G2X42.606Y57.727I1.563J-0.278
G2X42.956Y58.219I1.445J-0.656
G1X43.009Y58.272
X43.062Y58.325
G2X43.608Y58.698I1.149J-1.096
G1X43.753Y58.857
G2X44.902Y59.349I1.149J-1.096
G1X44.955
X45.231Y59.324
X45.294Y59.388
X45.347Y59.441
X45.400Y59.494
X45.453Y59.548
G2X46.180Y59.982I1.149J-1.096
G2X46.762Y60.093I0.581J-1.477
G1X46.974
G2X47.555Y59.982I0.000J-1.588
G2X48.282Y59.548I-0.422J-1.530
G1X48.335Y59.494
X48.389Y59.441
G2X48.823Y58.714I-1.096J-1.149
G2X48.934Y58.133I-1.477J-0.581
G1Y57.867
G2X48.738Y57.105I-1.588J0.000
G1X48.685Y56.998
G2X47.896Y56.209I-1.445J0.656
G1X47.790Y56.156
G2X47.027Y55.961I-0.763J1.392
G1X46.602
X46.336Y55.984
G2X45.944Y55.390I-1.487J0.555
G1X45.891Y55.337
X45.838Y55.284
X45.785Y55.231
G2X44.636Y54.739I-1.149J1.096
G0Z5.080
G0X38.908Y66.176
G1Z-4.000F300.0
G2X39.093Y65.590I-1.392J-0.763F1000.0
G1X39.156Y65.147
Y64.988
G2X39.046Y64.407I-1.588J0.000
G2X38.611Y63.680I-1.530J0.422
G1X38.558Y63.627
X38.505Y63.573
G2X38.012Y63.224I-1.149J1.096
G2X37.250Y63.028I-0.763J1.392
G1X36.984
G2X36.222Y63.224I0.000J1.587
G1X35.919Y63.404
G2X35.273Y64.119I0.799J1.372
G1X35.220Y64.225
G2X35.025Y64.988I1.392J0.763
G1Y65.147
G2X35.135Y65.728I1.588J0.000
G1X35.273Y66.069
X35.453Y66.372
X35.729Y66.721
X35.782Y66.774
G2X36.509Y67.209I1.149J-1.096
G2X37.090Y67.319I0.581J-1.477
G1X37.144
G2X37.725Y67.209I0.000J-1.587
G2X38.452Y66.774I-0.422J-1.530
G1X38.505Y66.721
X38.558Y66.668
G2X38.908Y66.176I-1.096J-1.149
G0Z5.080
G0X33.071Y61.948
G1Z-4.000F300.0
G1X32.964Y61.895F1000.0
X32.858Y61.842
G2X32.373Y61.671I-0.763J1.392
G2X31.883Y61.594I-0.490J1.510
G1X31.759
X31.351Y61.541
X30.873
G2X30.292Y61.651I0.000J1.588
G1X29.951Y61.789
X29.649Y61.969
X29.299Y62.245
X29.246Y62.298
X29.193Y62.351
X28.917Y62.701
X28.811Y62.860
X28.631Y63.163
X28.606Y63.210
X28.365Y63.588
X28.312Y63.694
X28.259Y63.800
X28.206Y63.906
G2X28.010Y64.669I1.392J0.763
G1Y65.254
G2X28.206Y66.016I1.587J0.000
G1X28.259Y66.122
X28.270Y66.146
X28.223Y66.529
Y67.432
G2X28.418Y68.195I1.588J0.000
G1X28.471Y68.301
G2X28.821Y68.794I1.445J-0.656
G1X28.874Y68.847
X28.883Y68.856
X29.077Y69.188
X29.183Y69.347
X29.459Y69.697
G2X29.951Y70.047I1.149J-1.096
G1X30.057Y70.100
X30.164Y70.153
X30.065Y70.336
X30.012Y70.442
G2X29.842Y70.927I1.392J0.763
G2X29.764Y71.418I1.510J0.490
G1Y71.683
X29.827Y72.126
X29.927Y72.530
X30.065Y72.871
X30.246Y73.173
X30.295Y73.253
Y73.277
G2X30.491Y74.040I1.588J0.000
G2X30.840Y74.532I1.445J-0.656
G1X30.893Y74.586
X30.947Y74.639
X31.000Y74.692
X31.053Y74.745
X31.106Y74.798
G2X31.598Y75.148I1.149J-1.096
G2X32.361Y75.343I0.763J-1.392
G1X32.892
G2X33.655Y75.148I0.000J-1.587
G1X33.761Y75.095
G2X34.254Y74.745I-0.656J-1.445
G1X34.307Y74.692
X34.583Y74.342
X34.763Y74.040
X34.816Y73.934
X34.869Y73.827
X34.922Y73.721
X34.976Y73.615
X35.114Y73.274
X35.199Y72.971
G2X35.277Y72.480I-1.510J-0.490
G1Y72.108
G2X35.082Y71.346I-1.588J0.000
G1X35.029Y71.239
G2X34.723Y70.791I-1.445J0.656
G1X34.657Y70.655
X34.604Y70.549
G2X34.254Y70.056I-1.445J0.656
G1X34.201Y70.003
X34.148Y69.950
X34.094Y69.897
X33.788Y69.647
X33.470Y69.427
X33.594Y69.204
X33.647Y69.098
X33.781Y68.774
X34.027Y68.665
G2X34.519Y68.315I-0.656J-1.445
G2X34.869Y67.823I-1.096J-1.149
G2X35.064Y67.060I-1.392J-0.763
G1Y66.688
G2X34.958Y66.117I-1.588J0.000
G1Y66.051
G2X34.763Y65.288I-1.588J0.000
G1X34.710Y65.182
G2X34.360Y64.689I-1.445J0.656
G1X34.307Y64.636
X34.288Y64.617
X34.321Y64.297
Y63.819
G2X34.125Y63.056I-1.588J0.000
G1X34.072Y62.950
G2X33.722Y62.457I-1.445J0.656
G1X33.669Y62.404
X33.616Y62.351
X33.563Y62.298
G2X33.071Y61.948I-1.149J1.096
G0Z5.080
G0X12.295Y67.744
G1Z-4.000F300.0
G1X12.308Y67.731F1000.0
X12.361Y67.678
X12.414Y67.625
X12.467Y67.571
X12.498Y67.541
X12.463Y67.699
X12.438Y67.708
X12.369Y67.729
X12.295Y67.744
G0Z5.080
G0X5.348Y38.323
G1Z-4.000F300.0
G1X5.689Y38.461F1000.0
G2X6.270Y38.572I0.581J-1.477
G1X6.483
G2X6.973Y38.494I0.000J-1.587
G2X7.458Y38.323I-0.278J-1.563
G2X7.950Y37.973I-0.656J-1.445
G1X8.004Y37.920
X8.057Y37.867
X8.110Y37.814
X8.163Y37.761
G2X8.465Y37.366I-1.096J-1.149
G1X8.629Y37.548
X8.682Y37.602
X8.735Y37.655
X8.788Y37.708
X8.841Y37.761
G2X9.334Y38.111I1.149J-1.096
G1X9.440Y38.164
X9.546Y38.217
X9.629Y38.259
G2X10.153Y38.515I0.946J-1.275
G2X10.734Y38.625I0.581J-1.477
G1X11.053
G2X11.634Y38.515I0.000J-1.588
G2X12.171Y38.249I-0.422J-1.530
G1X12.520Y37.973
X12.563Y37.932
X12.627Y37.934
X12.667Y37.973
X12.720Y38.027
X12.741Y38.048
X12.667Y38.120
X12.614Y38.173
X12.561Y38.227
X12.508Y38.280
G2X12.158Y38.772I1.096J1.149
G1X12.002Y39.184
X11.939Y39.276
X11.753Y39.533
X11.573Y39.835
X11.520Y39.941
G2X11.350Y40.426I1.392J0.763
G2X11.272Y40.916I1.510J0.490
G1Y41.076
G2X11.350Y41.566I1.588J0.000
G1X11.374Y41.681
X11.141Y41.730
X10.828Y41.798
G2X10.343Y41.968I0.278J1.563
G1X10.237Y42.021
X9.948Y42.192
X9.565Y42.145
X8.821
G2X8.240Y42.255I0.000J1.588
G1X7.899Y42.393
G2X7.406Y42.743I0.656J1.445
G1X7.372Y42.777
X7.177Y42.840
X6.836Y42.978
X6.730Y43.031
G2X6.237Y43.381I0.656J1.445
G1X6.184Y43.434
X6.131Y43.487
X6.078Y43.540
X6.025Y43.593
X5.972Y43.647
X5.919Y43.700
X5.865Y43.753
G2X5.516Y44.245I1.096J1.149
G1X5.392Y44.536
X5.048
G2X4.286Y44.732I0.000J1.587
G2X3.793Y45.081I0.656J1.445
G1X3.740Y45.134
X3.687Y45.188
X3.444Y45.483
X3.421Y45.506
X3.368Y45.560
X3.092Y45.909
G2X2.827Y46.446I1.265J0.959
G1X2.774Y46.606
G2X2.664Y47.187I1.477J0.581
G1Y47.618
X2.657
G2X2.076Y47.729I0.000J1.588
G1X1.735Y47.867
G2X1.242Y48.216I0.656J1.445
G1X1.189Y48.270
X1.136Y48.323
X1.083Y48.376
X1.030Y48.429
G2X0.595Y49.156I1.096J1.149
G2X0.485Y49.737I1.477J0.581
G1Y49.984
G2X0.202Y50.409I1.162J1.081
G1X0.183Y50.445
X0.180Y50.448
X0.000Y50.652
Y0.111
X0.004Y0.057
X0.058Y0.053
X63.442
X63.496Y0.057
X63.500Y0.111
Y88.842
X63.496Y88.896
X63.442Y88.900
X19.000
X19.034Y88.850
X19.279Y88.530
X19.385Y88.371
X19.555Y88.092
X19.651Y87.946
X19.697Y87.882
X19.767Y87.884
X20.830
G2X21.411Y87.774I0.000J-1.587
G1X21.684Y87.670
X21.733Y87.671
X22.159
G2X22.921Y87.476I0.000J-1.587
G1X23.027Y87.423
X23.135Y87.369
X23.545Y87.218
X23.560Y87.232
G2X24.053Y87.582I1.149J-1.096
G1X24.394Y87.720
G2X24.975Y87.831I0.581J-1.477
G1X25.347
G2X25.928Y87.720I0.000J-1.587
G1X26.087Y87.667
X26.459Y87.512
X26.569
X26.954Y87.464
X27.082Y87.529
X27.188Y87.582
G2X27.673Y87.753I0.763J-1.392
G2X28.163Y87.831I0.490J-1.510
G1X28.323
G2X28.904Y87.720I0.000J-1.587
G1X29.245Y87.582
X29.351Y87.529
G2X29.843Y87.179I-0.656J-1.445
G1X29.896Y87.126
X29.950Y87.073
X30.003Y87.020
X30.279Y86.670
G2X30.513Y86.232I-1.265J-0.959
G1X30.573Y86.201
X30.679Y86.148
X30.786Y86.094
G2X31.278Y85.745I-0.656J-1.445
G1X31.331Y85.691
X31.384Y85.638
X31.437Y85.585
X31.687Y85.279
G2X32.032Y84.645I-1.186J-1.055
G2X32.142Y84.064I-1.477J-0.581
G1Y83.905
G2X32.032Y83.324I-1.588J0.000
G2X31.597Y82.597I-1.530J0.422
G1X31.544Y82.544
X31.491Y82.491
X31.437Y82.437
G2X30.710Y82.003I-1.149J1.096
G2X30.230Y81.896I-0.581J1.477
G1X30.073Y81.843
G2X29.492Y81.733I-0.581J1.477
G1X29.120
G2X28.357Y81.928I0.000J1.588
G1X28.251Y81.981
G2X27.852Y82.241I0.656J1.445
G1X27.829Y82.256
X27.810Y82.247
X27.704Y82.194
X27.597Y82.141
G2X26.835Y81.946I-0.763J1.392
G1X26.463
G2X25.882Y82.056I0.000J1.587
G1X25.813Y82.076
X25.648Y82.115
X25.335Y82.183
X25.284Y82.192
X25.287Y82.098
Y81.726
G2X25.092Y80.964I-1.588J0.000
G2X24.742Y80.471I-1.445J0.656
G1X24.689Y80.418
X24.636Y80.365
X24.583Y80.312
G2X23.712Y79.845I-1.149J1.096
G1X23.339Y79.771
X23.293Y79.749
X23.275Y79.740
X23.214Y79.598
X23.414Y79.421
X23.467Y79.368
X23.520Y79.315
X23.573Y79.262
X23.849Y78.912
X24.029Y78.610
X24.082Y78.504
X24.211Y78.195
G2X24.384Y77.475I-1.415J-0.720
G1Y77.050
G2X24.189Y76.288I-1.588J0.000
G1X24.135Y76.181
G2X23.786Y75.689I-1.445J0.656
G1X23.732Y75.636
X23.679Y75.583
X23.626Y75.529
X23.573Y75.476
X23.520Y75.423
G2X23.027Y75.073I-1.149J1.096
G1X22.921Y75.020
X22.710Y74.924
G2X22.200Y74.355I-1.402J0.745
G1X22.205Y74.234
Y73.756
G2X22.010Y72.993I-1.588J0.000
G1X21.957Y72.887
G2X21.607Y72.394I-1.445J0.656
G1X21.554Y72.341
X21.501Y72.288
X21.448Y72.235
G2X20.955Y71.885I-1.149J1.096
G2X20.192Y71.690I-0.763J1.392
G1X20.186
Y71.683
X20.153Y71.364
X20.172Y71.344
X20.225Y71.291
X20.278Y71.238
X20.332Y71.185
G2X20.681Y70.692I-1.096J-1.149
G1X20.735Y70.586
X20.788Y70.480
X20.863Y70.323
X20.890Y70.443
Y70.674
G2X21.085Y71.436I1.588J0.000
G1X21.138Y71.543
X21.191Y71.649
G2X21.541Y72.141I1.445J-0.656
G1X21.594Y72.194
X21.647Y72.248
X21.997Y72.523
G2X22.678Y72.821I0.959J-1.265
G1X22.782Y72.851
X22.816Y72.885
X22.870Y72.938
X22.923Y72.991
X22.976Y73.045
G2X23.468Y73.394I1.149J-1.096
G1X23.575Y73.448
X23.878Y73.575
X23.932Y73.629
X23.986Y73.682
X24.039Y73.735
X24.092Y73.789
X24.441Y74.064
G2X24.978Y74.330I0.959J-1.265
G2X25.559Y74.440I0.581J-1.477
G1X26.091
G2X26.853Y74.245I0.000J-1.587
G2X27.346Y73.895I-0.656J-1.445
G1X27.399Y73.842
X27.452Y73.789
X27.505Y73.735
X27.558Y73.682
G2X27.908Y73.190I-1.096J-1.149
G1X27.961Y73.084
G2X28.157Y72.321I-1.392J-0.763
G1Y71.843
G2X27.961Y71.080I-1.588J0.000
G1X27.781Y70.778
X27.505Y70.428
X27.452Y70.375
X27.399Y70.322
X27.346Y70.269
X27.142Y70.089
X27.090Y69.933
G2X26.825Y69.396I-1.530J0.422
G1X26.562Y69.060
Y68.814
G2X26.452Y68.233I-1.588J0.000
G1X26.314Y67.892
X26.261Y67.786
X26.208Y67.679
X26.015Y67.361
X26.017Y67.359
X26.071Y67.306
X26.124Y67.253
X26.177Y67.199
X26.230Y67.146
G2X26.665Y66.419I-1.096J-1.149
G2X26.775Y65.838I-1.477J-0.581
G1Y65.466
G2X26.665Y64.885I-1.588J0.000
G1X26.527Y64.544
G2X26.267Y64.145I-1.445J0.656
G1X26.156Y63.989
X26.190Y63.659
Y63.588
X26.244Y63.181
Y63.179
G2X26.708Y62.842I-0.684J-1.433
G1X26.761Y62.789
X26.814Y62.736
X26.868Y62.683
X26.921Y62.630
X26.974Y62.576
X27.027Y62.523
X27.080Y62.470
G2X27.430Y61.978I-1.096J-1.149
G2X27.625Y61.215I-1.392J-0.763
G1Y60.482
G2X28.059Y60.249I-0.525J-1.498
G1X28.315Y60.063
X28.621Y59.813
X28.682Y59.752
X28.819Y59.685
X28.926Y59.632
G2X29.418Y59.282I-0.656J-1.445
G1X29.471Y59.229
X29.525Y59.176
X29.578Y59.122
G2X29.927Y58.630I-1.096J-1.149
G2X30.123Y57.867I-1.392J-0.763
G1Y57.389
G2X29.927Y56.627I-1.588J0.000
G2X29.578Y56.134I-1.445J0.656
G1X29.525Y56.081
X29.495Y56.050
X29.843Y55.775
X29.896Y55.722
X29.950Y55.668
G2X30.299Y55.176I-1.096J-1.149
G2X30.495Y54.413I-1.392J-0.763
G1Y54.148
G2X30.299Y53.385I-1.588J0.000
G2X29.950Y52.893I-1.445J0.656
G1X29.896Y52.839
X29.843Y52.786
X29.494Y52.510
X29.191Y52.330
X29.085Y52.277
G2X28.323Y52.082I-0.763J1.392
G1X27.951
G2X27.188Y52.277I0.000J1.587
G1X27.082Y52.330
G2X26.373Y52.965I0.656J1.445
G1X26.125Y53.074
X26.019Y53.127
G2X25.527Y53.477I0.656J1.445
G1X25.473Y53.530
X25.420Y53.583
X25.171Y53.889
X25.018Y54.092
X24.995Y54.115
X24.942Y54.168
X24.680Y54.493
X24.356Y54.296
G2X23.593Y54.101I-0.763J1.392
G1X23.168
G2X22.597Y54.208I0.000J1.588
G1X22.584Y54.207
X22.424
G2X21.275Y54.699I0.000J1.587
G1X21.222Y54.752
G2X20.730Y55.901I1.096J1.149
G1Y56.061
G2X21.222Y57.209I1.588J0.000
G1X21.262Y57.249
Y57.336
X21.284Y57.602
G2X20.691Y57.994I0.555J1.487
G1X20.638Y58.047
X20.600Y58.085
X20.455Y58.037
G2X19.874Y57.927I-0.581J1.477
G1X19.449
G2X18.686Y58.122I0.000J1.588
G1X18.580Y58.175
G2X18.087Y58.525I0.656J1.445
G1X18.072Y58.540
X17.863Y58.447
X17.834Y58.419
X17.781Y58.366
X17.728Y58.313
X17.675Y58.260
X17.622Y58.206
G2X17.129Y57.857I-1.149J1.096
G1X17.023Y57.803
X16.917Y57.750
X16.576Y57.612
G2X15.995Y57.502I-0.581J1.477
G1X15.410
G2X14.647Y57.697I0.000J1.587
G1X14.541Y57.750
G2X14.079Y58.070I0.656J1.445
G1X13.783Y58.313
X13.730Y58.366
X13.677Y58.419
X13.676Y58.420
X13.420Y58.522
X13.022Y58.622
X12.863Y58.675
X12.522Y58.813
X12.416Y58.866
X12.309Y58.919
G2X11.910Y59.179I0.656J1.445
G1X11.604Y59.429
X11.551Y59.482
X11.498Y59.535
X11.445Y59.588
X11.392Y59.641
X11.339Y59.694
X11.286Y59.747
X11.232Y59.801
X11.179Y59.854
X10.930Y60.160
G2X10.670Y60.559I1.186J1.055
G1X10.617Y60.665
G2X10.446Y61.150I1.392J0.763
G2X10.369Y61.640I1.510J0.490
G1Y61.800
X10.372Y61.906
X10.369Y62.012
Y62.384
X10.399Y62.694
X10.266Y63.025
G2X10.156Y63.606I1.477J0.581
G1Y63.934
X10.153Y63.936
X9.981Y63.994
X9.568Y64.095
X9.409Y64.148
X9.068Y64.286
G2X8.575Y64.636I0.656J1.445
G1X8.522Y64.689
X8.469Y64.742
X8.416Y64.796
X8.363Y64.849
X8.087Y65.198
X7.907Y65.501
